{"type":"map","version":"1.10","tiledversion":"1.10.2","orientation":"orthogonal","renderorder":"right-down","width":92,"height":92,"tilewidth":16,"tileheight":16,"infinite":false,"compressionlevel":-1,"nextlayerid":12,"nextobjectid":273,"properties":[],"tilesets":[{"firstgid":1,"name":"district_ground","image":"../tilesets/pack/district_ground.png","imagewidth":128,"imageheight":48,"tilewidth":16,"tileheight":16,"tilecount":23,"columns":8,"margin":0,"spacing":0}],"layers":[{"id":1,"name":"ground","type":"tilelayer","width":92,"height":92,"x":0,"y":0,"opacity":1,"visible":true,"data":[1,1,1,1,1,1,1,1,1,1,1,1,1,1,1,1,1,1,1,1,4,4,0,0,0,6,4,1,1,1,1,1,1,1,1,1,1,1,1,1,1,1,1,1,1,1,1,1,1,1,1,1,1,1,1,1,1,1,1,1,1,1,1,1,1,1,1,1,1,1,1,1,1,1,1,1,1,1,1,1,1,1,1,1,1,1,1,1,1,1,1,1,1,1,1,1,1,1,1,1,1,1,1,1,1,1,1,1,1,1,1,1,4,5,0,0,0,6,6,1,1,1,1,1,1,1,1,1,1,1,1,1,1,1,1,1,1,1,1,1,1,1,1,1,1,1,1,1,1,1,1,1,1,1,1,1,1,1,1,1,1,1,1,1,1,1,1,1,1,1,1,1,1,1,1,1,1,1,1,1,1,1,1,1,1,1,1,1,1,1,1,1,1,1,1,1,1,1,1,1,1,1,1,1,6,5,0,0,0,5,6,1,1,1,1,1,1,1,1,1,22,22,22,22,23,22,22,22,22,22,23,22,1,1,1,1,1,1,1,1,1,1,1,1,1,1,1,1,1,1,1,1,1,1,1,1,1,1,1,1,1,1,1,1,1,1,1,1,1,1,1,1,1,1,1,1,1,1,1,1,1,1,1,1,1,1,1,1,1,1,1,1,1,1,1,1,4,5,0,0,0,4,7,1,1,1,1,1,1,1,1,1,22,22,23,22,22,23,22,23,23,22,22,22,1,1,1,1,1,1,1,1,1,1,1,1,1,1,1,1,1,1,1,1,1,1,1,1,1,1,1,1,1,1,1,1,1,1,1,1,1,1,1,1,1,1,1,1,1,1,1,1,1,1,1,1,1,1,1,1,1,1,1,1,1,1,1,1,5,4,0,0,0,7,4,1,1,1,1,1,1,1,1,1,22,22,23,23,22,22,22,22,22,22,23,22,1,1,1,1,1,1,1,1,1,1,1,1,1,1,1,1,1,1,1,1,1,1,1,1,1,1,1,1,1,1,1,1,1,1,1,1,1,1,1,1,1,1,1,1,1,1,1,1,1,1,1,1,1,1,1,1,1,1,1,1,1,1,1,1,4,6,0,0,0,7,4,1,1,1,1,1,1,1,1,1,23,22,22,22,22,22,22,23,22,23,23,22,1,1,1,1,1,1,1,1,1,1,1,1,1,1,1,1,1,1,1,1,1,1,1,1,1,1,1,1,1,1,1,1,1,1,1,1,1,1,1,1,1,1,1,1,1,1,1,1,1,1,1,1,1,1,1,1,1,1,1,1,1,1,1,1,6,4,0,0,0,4,4,1,1,1,1,1,1,1,1,1,22,22,22,23,23,22,22,22,22,22,22,22,1,1,1,1,1,1,1,1,1,1,1,1,1,1,1,1,1,1,1,1,1,1,1,1,1,1,1,1,1,1,1,1,1,1,1,1,1,1,1,1,1,1,1,1,1,1,1,1,1,1,1,1,1,1,1,1,1,1,1,1,1,1,1,1,6,4,0,0,0,6,7,1,1,1,1,1,1,1,1,1,23,22,22,23,23,22,23,22,23,22,23,22,1,1,1,1,1,1,1,1,1,1,1,1,1,1,1,1,1,1,1,1,1,1,1,1,1,1,1,1,1,1,1,1,1,1,1,1,1,1,1,1,1,1,1,1,1,1,1,1,1,1,1,1,1,1,1,1,1,1,1,1,1,1,1,1,7,4,0,0,0,4,4,1,1,1,1,1,1,1,1,1,23,22,22,22,23,23,23,22,22,22,22,22,1,1,1,1,1,1,1,1,1,1,1,1,1,1,1,1,1,1,1,1,1,1,1,1,1,1,1,1,1,1,1,1,1,1,1,1,1,1,1,1,1,1,1,1,1,1,1,1,1,1,1,1,1,1,1,1,1,1,1,1,1,1,1,1,6,4,0,0,0,5,4,1,1,1,1,1,1,1,1,1,22,22,22,22,22,22,23,23,23,23,22,22,1,1,1,1,1,1,1,1,1,1,1,1,1,1,1,1,1,1,1,1,1,1,1,1,1,1,1,1,1,1,1,1,1,1,1,1,1,1,1,1,1,1,1,1,1,1,1,1,1,1,1,1,1,1,1,1,1,1,1,1,1,1,1,1,5,6,0,0,0,5,4,1,1,1,1,1,1,1,1,1,22,22,22,22,22,22,22,23,22,23,22,22,1,1,1,1,1,1,1,1,1,1,1,1,1,1,1,1,1,1,1,1,1,1,1,1,1,1,1,1,1,1,1,1,1,1,1,1,1,1,1,1,1,1,1,1,1,1,1,1,1,1,1,1,1,1,1,1,1,1,1,1,1,1,1,1,5,4,0,0,0,4,7,1,1,1,1,1,1,1,1,1,22,23,23,22,23,22,22,22,23,22,22,22,1,1,1,1,1,1,1,1,1,1,1,1,1,1,1,1,1,1,1,1,1,1,1,1,1,1,1,1,1,1,1,1,1,1,1,1,1,1,1,1,1,1,1,1,1,1,1,1,1,1,1,1,1,1,1,1,1,1,1,1,1,1,1,1,7,7,0,0,0,4,5,1,1,1,1,1,1,1,1,1,22,22,22,22,23,23,23,23,22,23,22,22,1,1,1,1,1,1,1,1,1,1,1,1,1,1,1,1,1,1,1,1,1,1,1,1,1,1,1,1,1,1,1,1,1,1,1,1,1,1,1,1,1,1,1,1,1,1,1,1,1,1,1,1,1,1,1,1,1,1,1,1,1,1,1,1,6,6,0,0,0,4,6,1,1,1,1,1,1,1,1,1,22,23,22,23,23,23,23,22,23,22,22,22,1,1,1,1,1,1,1,1,1,1,1,1,1,1,1,1,1,1,1,1,1,1,1,1,1,1,1,1,1,1,1,1,1,1,1,1,1,1,1,1,1,1,1,1,1,1,1,1,1,1,1,1,1,1,1,1,1,1,1,1,1,1,1,1,5,4,0,0,0,6,6,1,1,1,1,1,1,1,1,1,22,22,22,22,23,22,22,22,22,23,22,22,1,1,1,1,1,1,1,1,1,1,1,1,1,1,1,1,1,1,1,1,1,1,1,1,1,1,1,1,1,1,1,1,1,1,1,1,1,1,1,1,1,1,1,1,1,1,1,1,1,1,1,1,1,1,1,1,1,1,1,1,1,1,1,1,4,6,0,0,0,7,7,1,1,1,1,1,1,1,1,1,22,22,22,23,22,22,22,22,22,23,22,22,1,1,1,1,1,1,1,1,1,1,1,1,1,1,1,1,1,1,1,1,1,1,1,1,1,1,1,1,1,1,1,1,1,1,1,1,1,1,1,1,1,1,1,1,1,1,1,1,1,1,1,1,1,1,1,1,1,1,1,1,1,1,1,1,6,4,0,0,0,6,5,1,1,1,1,1,1,1,1,1,23,22,22,22,22,23,23,22,22,22,22,23,1,1,1,1,1,1,1,1,1,1,1,1,1,1,1,1,1,1,1,1,1,1,1,1,1,1,1,1,1,1,1,1,1,1,1,1,1,1,1,1,1,1,1,1,1,1,1,1,1,1,1,1,1,1,1,1,1,1,1,1,1,1,1,1,5,6,0,0,0,7,4,1,1,1,1,1,1,1,1,1,22,23,22,22,22,22,22,22,23,23,22,23,1,1,1,1,1,1,1,1,1,1,1,1,1,1,1,1,1,1,1,1,1,1,1,1,1,1,1,1,1,1,1,1,1,1,1,1,1,1,1,1,1,1,1,1,1,1,1,1,1,1,1,1,1,1,1,1,1,1,1,1,1,1,1,1,4,7,0,0,0,4,5,1,1,1,1,1,1,1,1,1,22,23,22,22,22,22,23,23,22,23,22,22,1,1,1,1,1,1,1,1,1,1,1,1,1,1,1,1,1,1,1,1,1,1,1,1,1,1,1,1,1,1,1,1,1,1,1,1,1,1,1,1,1,1,1,1,7,4,6,5,4,6,5,4,5,5,6,4,7,7,4,6,4,4,5,4,5,7,0,0,0,5,7,4,4,4,4,5,4,5,4,5,4,4,4,7,4,4,4,4,6,5,4,4,5,7,6,7,5,7,6,4,4,7,5,4,7,4,4,4,4,4,4,4,7,6,4,4,4,5,5,7,6,4,4,4,7,4,4,4,7,4,4,7,5,7,7,5,4,7,4,5,6,7,5,6,6,5,7,5,7,7,6,5,4,5,4,4,6,7,0,0,0,4,5,6,6,5,4,5,4,7,5,7,7,5,4,7,5,4,6,4,4,4,6,7,4,7,6,5,7,5,7,4,5,5,4,7,6,5,7,4,6,5,7,4,4,4,4,6,4,4,4,6,4,6,6,7,7,7,4,6,7,7,4,7,7,4,4,7,0,0,0,0,0,0,0,0,0,0,0,0,0,0,0,0,0,0,0,0,0,0,0,0,0,0,0,0,0,0,0,0,0,0,0,0,0,0,0,0,0,0,0,0,0,0,0,0,0,0,0,0,0,0,0,0,0,0,0,0,0,0,0,0,0,0,0,0,0,0,0,0,0,0,0,0,0,0,0,0,0,0,0,0,0,0,0,0,0,0,0,0,0,0,0,0,0,0,0,0,0,0,0,0,0,0,0,0,0,0,0,0,0,0,0,0,0,0,0,0,0,0,0,0,0,0,0,0,0,0,0,0,0,0,0,0,0,0,0,0,0,0,0,0,0,0,0,0,0,0,0,0,0,0,0,0,0,0,0,0,0,0,0,0,0,0,0,0,0,0,0,0,0,0,0,0,0,0,0,0,0,0,0,0,0,0,0,0,0,0,0,0,0,0,0,0,0,0,0,0,0,0,0,0,0,0,0,0,0,0,0,0,0,0,0,0,0,0,0,0,0,0,0,0,0,0,0,0,0,0,0,0,0,0,0,0,0,0,0,0,0,0,0,0,0,0,0,0,0,0,0,0,0,0,0,0,0,0,0,0,0,0,0,0,0,0,0,0,0,0,0,0,0,0,0,0,5,6,4,7,6,4,7,4,7,4,4,4,7,6,6,4,7,4,6,4,4,6,0,0,0,5,4,6,4,7,4,6,4,4,4,5,4,4,5,6,4,4,4,4,5,6,7,4,4,7,4,4,4,4,5,6,5,5,4,6,4,7,4,4,4,5,5,4,4,7,6,7,4,6,5,4,4,4,4,4,7,4,6,5,4,5,4,5,5,4,4,4,4,6,4,5,7,6,4,6,6,6,6,4,4,4,7,6,4,4,6,6,5,6,0,0,0,4,6,4,7,4,5,7,5,4,7,6,4,5,4,7,5,7,6,7,5,5,6,6,7,5,6,5,4,4,6,6,6,4,7,4,4,7,4,4,6,5,7,4,7,6,5,4,7,6,7,4,5,5,7,6,4,4,4,6,6,7,4,7,5,6,6,4,1,1,1,1,1,1,1,1,1,1,1,1,1,1,1,1,1,1,1,1,6,4,0,0,0,5,4,1,1,1,1,1,1,1,1,1,1,1,1,1,1,1,1,1,1,1,1,1,1,1,1,1,1,1,1,1,1,1,1,1,1,1,1,1,1,1,1,1,1,1,1,1,1,1,1,1,1,1,1,1,1,1,1,1,1,1,1,1,1,1,1,1,1,1,1,1,1,1,1,1,1,1,1,1,1,1,1,1,1,1,1,1,4,6,0,0,0,6,5,1,1,1,1,1,1,1,1,1,1,1,1,1,1,1,1,1,1,1,1,1,1,1,1,1,1,1,1,1,1,1,1,1,1,1,1,1,1,1,1,1,1,1,1,1,1,1,1,1,1,1,1,1,1,1,1,1,1,1,1,1,1,1,1,1,1,1,1,1,1,1,1,1,1,1,1,1,1,1,1,1,1,1,1,1,6,7,0,0,0,4,5,1,1,1,1,1,1,1,1,1,1,1,1,1,1,1,1,1,1,1,1,1,1,1,1,1,1,1,1,1,1,1,1,1,1,1,1,1,1,1,1,1,1,1,1,1,1,1,1,1,1,1,1,1,1,1,1,1,1,1,1,1,1,1,1,1,1,1,1,1,1,1,1,1,1,1,1,1,1,1,1,1,1,1,1,1,4,4,0,0,0,5,4,1,1,1,1,1,1,1,1,1,1,1,1,1,1,1,1,1,1,1,1,1,1,1,1,1,1,1,1,1,1,1,1,1,1,1,1,1,1,1,1,1,1,1,1,1,1,1,1,1,1,1,1,1,1,1,1,1,1,1,1,1,1,1,1,1,1,1,1,1,1,1,1,1,1,1,1,1,1,1,1,1,1,1,1,1,7,4,0,0,0,5,4,1,1,1,1,1,1,1,1,1,1,1,1,1,1,1,1,1,1,1,1,1,1,1,1,1,1,1,1,1,1,1,1,1,1,1,1,1,1,1,1,1,1,1,1,1,1,1,1,1,1,1,1,1,1,1,1,1,1,1,1,1,1,1,1,1,1,1,1,1,1,1,1,1,1,1,1,1,1,1,1,1,1,1,1,1,4,5,0,0,0,5,7,1,1,1,1,1,1,1,1,1,1,1,1,1,1,1,1,1,1,1,1,1,1,1,1,1,1,1,1,1,1,1,1,1,1,1,1,1,1,1,1,1,1,1,1,1,1,1,1,1,1,1,1,1,1,1,1,1,1,1,1,1,1,1,1,1,1,1,1,1,1,1,1,1,1,1,1,1,1,1,1,1,1,1,1,1,6,4,0,0,0,6,4,1,1,1,1,1,1,1,1,1,1,1,1,1,1,1,1,1,1,1,1,1,1,1,1,1,1,1,1,1,1,1,1,1,1,1,1,1,1,1,1,1,1,1,1,1,1,1,1,1,1,1,1,1,1,1,1,1,1,1,1,1,1,1,1,1,1,1,1,1,1,1,1,1,1,1,1,1,1,1,1,1,1,1,1,1,4,7,0,0,0,5,6,1,1,1,1,1,1,1,1,1,1,1,1,1,1,1,1,1,1,1,1,1,1,1,1,1,1,1,1,1,1,1,1,1,1,1,1,1,1,1,1,1,1,1,1,1,1,1,1,1,1,1,1,1,1,1,1,1,1,1,1,1,1,1,1,1,1,1,1,1,1,1,1,1,1,1,1,1,1,1,1,1,1,1,1,1,6,4,0,0,0,4,7,1,1,1,1,1,1,1,1,1,1,1,1,1,1,1,1,1,1,1,1,1,1,1,1,1,1,1,1,1,1,1,1,1,1,1,1,1,1,1,1,1,1,1,1,1,1,1,1,1,1,1,1,1,1,1,1,1,1,1,1,1,1,1,1,1,1,1,1,1,1,1,1,1,1,1,1,1,1,1,1,1,1,1,1,1,5,4,0,0,0,4,5,1,1,1,1,1,1,1,1,1,1,1,1,1,1,1,1,1,1,1,1,1,1,1,1,1,1,1,1,1,1,1,1,1,1,1,1,1,1,1,1,1,1,1,1,1,1,1,1,1,1,1,1,1,1,1,1,1,1,1,1,1,1,1,1,1,1,1,1,1,1,1,1,1,1,1,1,1,1,1,1,1,1,1,1,1,6,7,0,0,0,5,4,6,4,4,4,5,6,5,1,1,1,1,1,1,1,1,1,1,1,1,1,1,1,1,1,1,1,1,1,1,1,1,1,1,1,1,1,1,1,1,1,1,1,1,1,1,1,1,1,1,1,1,1,1,1,1,1,1,1,1,1,1,1,1,1,1,1,1,1,1,1,1,1,1,1,1,1,1,1,1,1,1,1,1,1,1,6,7,0,0,0,5,4,6,4,5,4,5,4,4,1,1,1,1,1,1,1,1,1,1,1,1,1,1,1,1,1,1,1,1,1,1,1,1,1,1,1,1,1,1,1,1,1,1,1,1,1,1,1,1,1,1,1,1,1,1,1,1,1,1,1,1,1,1,1,1,1,1,1,1,1,1,1,1,1,1,1,1,1,1,1,1,1,1,1,1,1,1,5,4,0,0,0,6,7,1,1,1,1,1,1,1,1,1,1,1,1,1,1,1,1,1,1,1,1,1,1,1,1,1,1,1,1,1,1,1,1,1,1,1,1,1,1,1,1,1,1,1,1,1,1,1,1,1,1,1,1,1,1,1,1,1,1,1,1,1,1,1,1,1,1,1,1,1,1,1,1,1,1,1,1,1,1,1,1,1,1,1,1,1,5,4,0,0,0,4,5,1,1,1,1,1,1,1,1,1,1,1,1,1,1,1,1,1,1,1,1,1,1,1,1,1,1,1,1,1,1,1,1,1,1,1,1,1,1,1,1,1,1,1,1,1,1,1,1,1,1,1,1,1,1,1,1,1,1,1,1,1,1,1,1,1,1,1,1,1,1,1,1,1,1,1,1,1,1,1,1,1,1,1,1,1,6,7,0,0,0,7,5,1,1,1,1,1,1,1,1,1,1,1,1,1,1,1,1,1,1,1,1,1,1,1,1,1,1,1,1,1,1,1,1,1,1,1,1,1,1,1,1,1,1,1,1,1,1,1,1,1,1,1,1,1,1,1,1,1,1,1,1,1,1,1,1,1,1,1,1,1,1,1,1,1,5,6,6,6,5,4,4,4,5,6,4,5,6,5,0,0,0,4,7,1,1,1,1,1,1,1,1,1,1,1,1,1,1,1,1,1,1,1,1,1,1,1,1,1,1,1,1,1,1,1,1,1,1,1,1,1,1,1,1,1,1,1,1,1,1,1,1,1,1,1,1,1,1,1,1,1,1,1,1,1,1,1,1,1,1,1,1,1,1,1,1,1,4,4,4,4,4,5,4,4,6,6,6,5,7,4,0,0,0,6,4,1,1,1,1,1,1,1,1,1,1,1,1,1,1,1,1,1,1,1,1,1,1,1,1,1,1,1,1,1,1,1,1,1,1,1,1,1,1,1,1,1,1,1,1,1,1,1,1,1,1,1,1,1,1,1,1,1,1,1,1,1,1,1,1,1,1,1,1,1,1,1,1,1,1,1,1,1,1,1,1,1,1,1,1,1,6,6,0,0,0,6,4,1,1,1,1,1,1,1,1,1,1,1,1,1,1,1,1,1,1,1,1,1,1,1,1,1,1,1,1,1,1,1,1,1,1,1,1,1,1,1,1,1,1,1,1,1,1,1,1,1,1,1,1,1,1,1,1,1,1,1,1,1,1,1,1,1,1,1,1,1,1,1,1,1,1,1,1,1,1,1,1,1,1,1,1,1,4,4,0,0,0,4,4,1,1,1,1,1,1,1,1,1,1,1,1,1,1,1,1,1,1,1,1,1,1,1,1,1,1,1,1,1,1,1,1,1,1,1,1,1,1,1,1,1,1,1,1,1,1,1,1,1,1,1,1,1,1,1,1,1,1,1,1,1,1,1,1,1,1,1,1,1,1,1,1,1,1,1,1,1,1,1,1,1,1,1,1,1,4,5,0,0,0,4,7,1,1,1,1,1,1,1,1,1,1,1,1,1,1,1,1,1,1,1,1,1,1,1,1,1,1,1,1,1,1,1,1,1,1,1,1,1,1,1,1,1,1,1,1,1,1,1,1,1,1,1,1,1,1,1,1,1,1,1,1,1,1,1,1,1,1,1,1,1,1,1,1,1,1,1,1,1,1,1,1,1,1,1,1,1,7,4,0,0,0,6,6,1,1,1,1,1,1,1,1,1,1,1,1,1,1,1,1,1,1,1,1,1,1,1,1,1,1,1,1,1,1,1,1,1,1,1,1,1,1,1,1,1,1,1,1,1,1,1,1,1,1,1,1,1,1,1,1,1,1,1,1,1,1,1,1,1,1,1,1,1,1,1,1,1,1,1,1,1,1,1,1,1,1,1,1,1,7,7,0,0,0,6,5,1,1,1,1,1,1,1,1,1,1,1,1,1,1,1,1,1,1,1,1,1,1,1,1,1,1,1,1,1,1,1,1,1,1,1,1,1,1,1,1,1,1,1,1,1,1,1,1,1,1,1,1,1,1,1,1,1,1,1,1,1,1,1,1,1,1,1,1,1,1,1,1,1,1,1,1,1,1,1,1,1,1,1,1,1,5,7,0,0,0,5,6,1,1,1,1,1,1,1,1,1,1,1,1,1,1,1,1,1,1,1,1,1,1,1,1,1,1,1,1,1,1,1,1,1,1,1,1,1,1,1,1,1,1,1,1,1,1,1,1,1,1,1,1,1,1,1,1,1,1,1,1,1,1,1,1,1,1,1,1,1,1,1,1,1,1,1,1,1,1,1,1,1,1,1,1,1,5,6,0,0,0,7,5,1,1,1,1,1,1,1,1,1,1,1,1,1,1,1,1,1,1,1,1,1,1,1,1,1,1,1,1,1,1,1,1,1,1,1,1,1,1,1,1,1,1,1,1,1,1,1,1,1,1,1,1,1,1,1,1,1,1,1,1,1,1,1,1,1,1,1,1,1,1,1,1,1,1,1,1,1,1,1,1,1,1,1,1,1,4,4,0,0,0,4,6,1,1,1,1,1,1,1,1,1,1,1,1,1,1,1,1,1,1,1,1,1,1,1,1,1,1,1,1,1,1,1,1,1,1,1,1,1,1,1,1,1,1,1,1,1,1,1,1,1,1,1,1,1,1,1,1,1,1,1,1,1,1,1,1,1,1,1,1,1,1,1,1,1,1,1,1,1,1,1,1,1,1,1,1,1,7,7,0,0,0,7,4,1,1,1,1,1,1,1,1,1,1,1,1,1,1,1,1,1,1,1,1,1,1,1,1,1,1,1,1,1,1,1,1,1,1,1,1,1,1,1,1,1,1,1,1,1,1,1,1,1,1,1,1,1,1,1,1,1,1,1,1,1,1,1,1,1,1,1,1,1,1,1,1,1,1,1,1,1,1,1,1,1,1,1,1,1,6,4,0,0,0,4,5,1,1,1,1,1,1,1,1,1,1,1,1,1,1,1,1,1,1,1,1,1,1,1,1,1,1,1,1,1,1,1,1,1,1,1,1,1,1,1,1,1,1,1,1,1,1,1,1,1,1,1,1,1,1,1,1,1,1,1,1,1,1,1,1,1,1,1,1,1,1,1,1,1,1,1,1,1,1,1,1,1,1,1,1,1,7,7,0,0,0,5,7,1,1,1,1,1,1,1,1,1,1,1,1,1,1,1,1,1,1,1,1,1,1,1,1,1,1,1,1,1,1,1,1,1,1,1,1,1,1,1,1,1,1,1,1,1,1,1,1,1,1,1,1,1,1,1,1,1,1,1,1,1,1,1,1,1,1,1,1,1,1,1,1,1,1,1,1,1,1,1,1,1,1,1,1,1,4,4,0,0,0,5,4,1,1,1,1,1,1,1,1,1,1,1,1,1,1,1,1,1,1,1,1,1,1,1,1,1,1,1,1,1,1,1,1,1,1,1,1,1,1,1,1,1,1,1,1,1,1,1,1,1,1,1,1,1,1,1,1,1,1,1,1,1,1,1,1,1,1,1,1,1,1,1,1,1,1,1,1,1,1,1,1,1,1,1,1,1,7,7,0,0,0,7,5,1,1,1,1,1,1,1,1,1,1,1,1,1,1,1,1,1,1,1,1,1,1,1,1,1,1,1,1,1,1,1,1,1,1,1,1,1,1,1,1,1,1,1,1,1,1,1,1,1,1,1,1,1,1,1,1,1,1,1,1,1,1,1,1,1,1,1,1,1,1,1,1,1,1,1,1,1,1,1,1,1,1,1,1,1,5,4,0,0,0,6,7,1,1,1,1,1,1,1,1,1,1,1,1,1,1,1,1,1,1,1,1,1,1,1,1,1,1,1,1,1,1,1,1,1,1,1,1,1,1,1,1,1,1,1,1,1,1,1,1,1,1,1,1,1,1,1,1,1,1,1,1,1,1,1,1,1,1,1,1,1,1,1,1,1,1,1,1,1,1,1,1,1,1,1,1,1,5,6,0,0,0,7,4,1,1,1,1,1,1,1,1,1,1,1,1,1,1,1,1,1,1,1,1,1,1,1,1,1,1,1,1,1,1,1,1,1,1,1,1,1,1,1,1,1,1,1,1,1,1,1,1,1,1,1,1,1,1,1,1,1,1,1,1,1,1,1,1,1,1,1,1,1,1,1,1,1,1,1,1,1,1,1,1,1,1,1,1,1,5,6,0,0,0,5,4,1,1,1,1,1,1,1,1,1,1,1,1,1,1,1,1,1,1,1,1,1,1,1,1,1,1,1,1,1,1,1,1,1,1,1,1,1,1,1,1,1,1,1,1,1,1,1,1,1,1,1,1,1,1,1,1,1,1,1,1,1,1,1,1,1,1,1,1,1,1,1,1,1,1,1,1,1,1,1,1,1,1,1,1,1,7,4,0,0,0,7,6,1,1,1,1,1,1,1,1,1,1,1,1,1,1,1,1,1,1,1,1,1,1,1,1,1,1,1,1,1,1,1,1,1,1,1,1,1,1,1,1,1,1,1,1,1,1,1,1,1,1,1,1,1,1,1,1,1,1,1,1,1,1,1,1,1,1,1,1,1,1,1,1,1,1,1,1,1,1,1,1,1,1,1,1,1,7,4,0,0,0,4,4,1,1,1,1,1,1,1,1,1,1,1,1,1,1,1,1,1,1,1,1,1,1,1,1,1,1,1,1,1,1,1,1,1,1,1,1,1,1,1,1,1,1,1,1,1,1,1,1,1,1,1,1,1,1,1,1,1,1,1,1,1,1,1,1,1,1,1,1,1,1,1,1,1,1,1,1,1,1,1,1,1,1,1,1,1,7,4,0,0,0,4,6,1,1,1,1,1,1,1,1,1,1,1,1,1,1,1,1,1,1,1,1,1,1,1,1,1,1,1,1,1,1,1,1,1,1,1,1,1,1,1,1,1,1,1,1,1,1,1,1,1,1,1,1,1,1,1,1,1,1,1,1,1,1,1,1,1,1,1,1,1,1,1,1,1,1,1,1,1,1,1,1,1,1,1,1,1,7,6,0,0,0,7,7,1,1,1,1,1,1,1,1,1,1,1,1,1,1,1,1,1,1,1,1,1,1,1,1,1,1,1,1,1,1,1,1,1,1,1,1,1,1,1,1,1,1,1,1,1,1,1,1,1,1,1,1,1,1,1,1,1,1,1,1,1,1,1,1,1,1,1,1,1,1,1,1,1,1,1,1,1,1,1,1,1,1,1,1,1,5,5,0,0,0,4,7,1,1,1,1,1,1,1,1,1,1,1,1,1,1,1,1,1,1,1,1,1,1,1,1,1,1,1,1,1,1,1,1,1,1,1,1,1,1,1,1,1,1,1,1,1,1,1,1,1,1,1,1,1,1,1,1,1,1,1,1,1,1,1,1,1,1,1,1,1,1,1,1,1,1,1,1,1,1,1,1,1,1,1,1,1,4,5,0,0,0,4,6,1,1,1,1,1,1,1,1,1,1,1,1,1,1,1,1,1,1,1,1,1,1,1,1,1,1,1,1,1,1,1,1,1,1,1,1,1,1,1,1,1,1,1,1,1,1,1,1,1,1,1,1,1,1,1,1,1,1,1,1,1,1,1,1,1,1,1,1,1,1,1,1,1,1,1,1,1,1,1,1,1,1,1,1,1,5,7,0,0,0,7,4,1,1,1,1,1,1,1,1,1,1,1,1,1,1,1,1,1,1,1,1,1,1,1,1,1,1,1,1,1,1,1,1,1,1,1,1,1,1,1,1,1,1,1,1,1,1,1,1,1,1,1,1,1,1,1,1,1,1,1,1,1,1,1,1,1,1,1,1,1,1,1,1,1,1,1,1,1,1,1,1,1,1,1,1,1,4,4,0,0,0,7,4,1,1,1,1,1,1,1,1,1,1,1,1,1,1,1,1,1,1,1,1,1,1,1,1,1,1,1,1,1,1,1,1,1,1,1,1,1,1,1,1,1,1,1,1,1,1,1,1,1,1,1,1,1,1,1,1,1,1,1,1,1,1,1,1,1,1,1,1,1,1,1,1,1,1,1,1,1,1,1,1,1,1,1,1,1,4,4,0,0,0,5,4,1,1,1,1,1,1,1,1,1,1,1,1,1,1,1,1,1,1,1,1,1,1,1,1,1,1,1,1,1,1,1,1,1,1,1,1,1,1,1,1,1,1,1,1,1,1,1,1,1,1,1,1,1,1,1,1,1,1,1,1,1,1,1,1,1,1,1,1,1,1,1,1,1,1,1,1,1,1,1,1,1,1,1,1,1,7,4,0,0,0,6,6,1,1,1,1,1,1,1,1,1,1,1,1,1,1,1,1,1,1,1,1,1,1,1,1,1,1,1,1,1,1,1,1,1,1,1,1,1,1,1,1,1,1,1,1,1,1,1,1,1,1,1,1,1,1,1,1,1,1,1,1,1,1,1,1,1,1,1,1,1,1,1,1,1,1,1,1,1,1,1,1,1,1,1,1,1,7,4,0,0,0,7,5,1,1,1,1,1,1,1,1,1,1,1,1,1,1,1,1,1,1,1,1,1,1,1,1,1,1,1,1,1,1,1,1,1,1,1,1,1,1,1,1,1,1,1,1,1,1,1,1,1,1,1,1,1,1,1,1,1,1,1,1,1,1,1,1,1,1,1,1,1,1,1,1,1,1,1,1,1,1,1,1,1,1,1,1,1,4,5,0,0,0,6,6,1,1,1,1,1,1,1,1,1,1,1,1,1,1,1,1,1,1,1,1,1,1,1,1,1,1,1,1,1,1,1,1,1,1,1,1,1,1,1,1,1,1,1,1,1,1,1,1,1,1,1,1,1,1,1,1,1,1,1,1,1,1,1,1,1,1,1,1,1,1,1,1,1,1,1,1,1,1,1,1,1,1,1,1,1,5,7,0,0,0,4,6,1,1,1,1,1,1,1,1,1,1,1,1,1,1,1,1,1,1,1,1,1,1,1,1,1,1,1,1,1,1,1,1,1,1,1,1,1,1,1,1,1,1,1,1,1,1,1,1,1,1,1,1,1,1,1,1,1,1,1,1,1,1,1,1,1,1,1,1,1,1,1,1,1,1,1,1,1,1,1,1,1,1,1,1,1,6,5,0,0,0,5,5,1,1,1,1,1,1,1,1,1,1,1,1,1,1,1,1,1,1,1,1,1,1,1,1,1,1,1,1,1,1,1,1,1,1,1,1,1,1,1,1,1,1,1,1,1,1,1,1,1,1,1,1,1,1,1,1,1,1,1,1,1,1,1,1,1,1,1,1,1,1,1,1,1,1,1,1,1,1,1,1,1,1,1,1,1,5,7,0,0,0,6,5,1,1,1,1,1,1,1,1,1,1,1,1,1,1,1,1,1,1,1,1,1,1,1,1,1,1,1,1,1,1,1,1,1,1,1,1,1,1,1,1,1,1,1,1,1,1,1,1,1,1,1,1,1,1,1,1,1,1,1,1,1,1,1,1,1,1,1,1,1,1,1,1,1,1,1,1,1,1,1,1,1,1,1,1,1,5,4,0,0,0,6,7,1,1,1,1,1,1,1,1,1,1,1,1,1,1,1,1,1,1,1,1,1,1,1,1,1,1,1,1,1,1,1,1,1,1,1,1,1,1,1,1,1,1,1,1,1,1,1,1,1,1,1,1,1,1,1,1,1,1,1,1,1,1,1,1,1,1,1,1,1,1,1,1,1,1,1,1,1,1,1,1,1,1,1,1,1,4,6,0,0,0,4,4,1,1,1,1,1,1,1,1,1,1,1,1,1,1,1,1,1,1,1,1,1,1,1,1,1,1,1,1,1,1,1,1,1,1,1,1,1,1,1,1,1,1,1,1,1,1,1,1,1,1,1,1,1,1,1,1,1,1,1,1,1,1,1,1,1,1,1,1,1,1,1,1,1,1,1,1,1,1,1,1,1,1,1,1,1,4,6,0,0,0,4,4,1,1,1,1,1,1,1,1,1,1,1,1,1,1,1,1,1,1,1,1,1,1,1,1,1,1,1,1,1,1,1,1,1,1,1,1,1,1,1,1,1,1,1,1,1,1,1,1,1,1,1,1,1,1,1,1,1,1,1,1,1,1,1,1,1,1,1,1,1,1,1,1,1,1,1,1,1,1,1,1,1,1,1,1,1,4,5,0,0,0,7,6,1,1,1,1,1,1,1,1,1,1,1,1,1,1,1,1,1,1,1,1,1,1,1,1,1,1,1,1,1,1,1,1,1,1,1,1,1,1,1,1,1,1,1,1,1,1,1,1,1,1,1,1,1,1,1,1,1,1,1,1,1,1,1,1,1,1,1,1,1,1,1,1,1,1,1,1,1,1,1,1,1,1,1,1,1,7,5,0,0,0,4,6,1,1,1,1,1,1,1,1,1,1,1,1,1,1,1,1,1,1,1,1,1,1,1,1,1,1,1,1,1,1,1,1,1,1,1,1,1,1,1,1,1,1,1,1,1,1,1,1,1,1,1,1,1,1,1,1,1,1,1,1,1,1,1,1,1,1,1,1,1,1,1,1,1,1,1,1,1,1,1,1,1,1,1,1,1,4,7,0,0,0,7,5,1,1,1,1,1,1,1,1,1,1,1,1,1,1,1,1,1,1,1,1,1,1,1,1,1,1,1,1,1,1,1,1,1,1,1,1,1,1,1,1,1,1,1,1,1,1,1,1,1,1,1,1,1,1,1,1,1,1,1,1,1,1,1,1,1,1,1,1,1,1,1,1,1,1,1,1,1,1,1,1,1,1,1,1,1,4,5,0,0,0,4,6,1,1,1,1,1,1,1,1,1,1,1,1,1,1,1,1,1,1,1,1,1,1,1,1,1,1,1,1,1,1,1,1,1,1,1,1,1,1,1,1,1,1,1,1,1,1,1,1,1,1,1,1,1,1,1,1,1,1,1,1,1,1,1,1,1,1,1,1,1,1,1,1,1,1,1,1,1,1,1,1,1,1,1,1,1,6,7,0,0,0,4,5,1,1,1,1,1,1,1,1,1,1,1,1,1,1,1,1,1,1,1,1,1,1,1,1,1,1,1,1,1,1,1,1,1,1,1,1,1,1,1,1,1,1,1,1,1,1,1,1,1,1,1,1,1,1,1,1,1,1,1,1,1,1,1,1,1,1,1,1,1,1,1,1,1,1,1,1,1,1,1,1,1,1,1,1,1,5,6,0,0,0,4,4,1,1,1,1,1,1,1,1,1,1,1,1,1,1,1,1,1,1,1,1,1,1,1,1,1,1,1,1,1,1,1,1,1,1,1,1,1,1,1,1,1,1,1,1,1,1,1,1,1,1,1,1,1,1,1,1,1,1,1,1,1,1,1,1,1,1,1,1,1,1,1,1,1,1,1,1,1,1,1,1,1,1,1,1,1,4,5,0,0,0,4,4,1,1,1,1,1,1,1,1,1,1,1,1,1,1,1,1,1,1,1,1,1,1,1,1,1,1,1,1,1,1,1,1,1,1,1,1,1,1,1,1,1,1,1,1,1,1,1,1,1,1,1,1,1,1,1,1,1,1,1,1,1,1,1,1,1,1,1,1,1,1,1,1,1,1,1,1,1,1,1,1,1,1,1,1,1,5,7,0,0,0,5,4,1,1,1,1,1,1,1,1,1,1,1,1,1,1,1,1,1,1,1,1,1,1,1,1,1,1,1,1,1,1,1,1,1,1,1,1,1,1,1,1,1,1,1,1,1,1,1,1,1,1,1,1,1,1,1,1,1,1,1,1,1,1,1,1,1,1,1,1,1,1,1,1,1,1,1,1,1,1,1,1,1,1,1,1,1,4,7,0,0,0,4,7,1,1,1,1,1,1,1,1,1,1,1,1,1,1,1,1,1,1,1,1,1,1,1,1,1,1,1,1,1,1,1,1,1,1,1,1,1,1,1,1,1,1,1,1,1,1,1,1,1,1,1,1,1,1,1,1,1,1,1,1,1,1,1,1,1,1,1,1,1,1,1,1,1,1,1,1,1,1,1,1,1,1,1,1,1,4,4,0,0,0,6,7,1,1,1,1,1,1,1,1,1,1,1,1,1,1,1,1,1,1,1,1,1,1,1,1,1,1,1,1,1,1,1,1,1,1,1,1,1,1,1,1,1,1,1,1,1,1,1,1,1,1,1,1,1,1,1,1,1,1,1,1,1,1,1,1,1,1,1,1,1,1,1,1,1,1,1,1,1,1,1,1,1,1,1,1,1,6,7,0,0,0,4,5,1,1,1,1,1,1,1,1,1,1,1,1,1,1,1,1,1,1,1,1,1,1,1,1,1,1,1,1,1,1,1,1,1,1,1,1,1,1,1,1,1,1,1,1,1,1,1,1,1,1,1,1,1,1,1,1,1,1,1,1,1,1,1,1,1,1,1,1,1,1,1,1,1,1,1,1,1,1,1,1,1,1,1,1,1,6,7,0,0,0,5,5,1,1,1,1,1,1,1,1,1,1,1,1,1,1,1,1,1,1,1,1,1,1,1,1,1,1,1,1,1,1,1,1,1,1,1,1,1,1,1,1,1,1,1,1,1,1,1,1,1,1,1,1,1,1,1,1,1,1,1,1,1,1,1,1,1,1,1,1,1,1,1,1,1,1,1,1,1,1,1,1,1,1,1,1,1,5,7,0,0,0,4,6,1,1,1,1,1,1,1,1,1,1,1,1,1,1,1,1,1,1,1,1,1,1,1,1,1,1,1,1,1,1,1,1,1,1,1,1,1,1,1,1,1,1,1,1,1,1,1,1,1,1,1,1,1,1,1,1,1,1,1,1,1,1,1,1,1,1,1,1,1,1,1,1,1,1,1,1,1,1,1,1,1,1,1,1,1,5,6,0,0,0,4,7,1,1,1,1,1,1,1,1,1,1,1,1,1,1,1,1,1,1,1,1,1,1,1,1,1,1,1,1,1,1,1,1,1,1,1,1,1,1,1,1,1,1,1,1,1,1,1,1,1,1,1,1,1,1,1,1,1,1,1,1,1,1,1,1,1,1,1,1,1,1,1,1,1,1,1,1,1,1,1,1,1,1,1,1,1,6,5,0,0,0,4,5,1,1,1,1,1,1,1,1,1,1,1,1,1,1,1,1,1,1,1,1,1,1,1,1,1,1,1,1,1,1,1,1,1,1,1,1,1,1,1,1,1,1,1,1,1,1,1,1,1,1,1,1,1,1,1,1,1,1,1,1,1,1,1,1,1]},{"id":2,"name":"roads","type":"tilelayer","width":92,"height":92,"x":0,"y":0,"opacity":1,"visible":true,"data":[0,0,0,0,0,0,0,0,0,0,0,0,0,0,0,0,0,0,0,0,0,0,11,13,10,0,0,0,0,0,0,0,0,0,0,0,0,0,0,0,0,0,0,0,0,0,0,0,0,0,0,0,0,0,0,0,0,0,0,0,0,0,0,0,0,0,0,0,0,0,0,0,0,0,0,0,0,0,0,0,0,0,0,0,0,0,0,0,0,0,0,0,0,0,0,0,0,0,0,0,0,0,0,0,0,0,0,0,0,0,0,0,0,0,8,9,9,0,0,0,0,0,0,0,0,0,0,0,0,0,0,0,0,0,0,0,0,0,0,0,0,0,0,0,0,0,0,0,0,0,0,0,0,0,0,0,0,0,0,0,0,0,0,0,0,0,0,0,0,0,0,0,0,0,0,0,0,0,0,0,0,0,0,0,0,0,0,0,0,0,0,0,0,0,0,0,0,0,0,0,0,0,0,0,0,0,8,13,10,0,0,0,0,0,0,0,0,0,0,0,0,0,0,0,0,0,0,0,0,0,0,0,0,0,0,0,0,0,0,0,0,0,0,0,0,0,0,0,0,0,0,0,0,0,0,0,0,0,0,0,0,0,0,0,0,0,0,0,0,0,0,0,0,0,0,0,0,0,0,0,0,0,0,0,0,0,0,0,0,0,0,0,0,0,0,0,0,0,11,8,8,0,0,0,0,0,0,0,0,0,0,0,0,0,0,0,0,0,0,0,0,0,0,0,0,0,0,0,0,0,0,0,0,0,0,0,0,0,0,0,0,0,0,0,0,0,0,0,0,0,0,0,0,0,0,0,0,0,0,0,0,0,0,0,0,0,0,0,0,0,0,0,0,0,0,0,0,0,0,0,0,0,0,0,0,0,0,0,0,0,9,13,9,0,0,0,0,0,0,0,0,0,0,0,0,0,0,0,0,0,0,0,0,0,0,0,0,0,0,0,0,0,0,0,0,0,0,0,0,0,0,0,0,0,0,0,0,0,0,0,0,0,0,0,0,0,0,0,0,0,0,0,0,0,0,0,0,0,0,0,0,0,0,0,0,0,0,0,0,0,0,0,0,0,0,0,0,0,0,0,0,0,10,8,8,0,0,0,0,0,0,0,0,0,0,0,0,0,0,0,0,0,0,0,0,0,0,0,0,0,0,0,0,0,0,0,0,0,0,0,0,0,0,0,0,0,0,0,0,0,0,0,0,0,0,0,0,0,0,0,0,0,0,0,0,0,0,0,0,0,0,0,0,0,0,0,0,0,0,0,0,0,0,0,0,0,0,0,0,0,0,0,0,0,11,13,9,0,0,0,0,0,0,0,0,0,0,0,0,0,0,0,0,0,0,0,0,0,0,0,0,0,0,0,0,0,0,0,0,0,0,0,0,0,0,0,0,0,0,0,0,0,0,0,0,0,0,0,0,0,0,0,0,0,0,0,0,0,0,0,0,0,0,0,0,0,0,0,0,0,0,0,0,0,0,0,0,0,0,0,0,0,0,0,0,0,8,11,11,0,0,0,0,0,0,0,0,0,0,0,0,0,0,0,0,0,0,0,0,0,0,0,0,0,0,0,0,0,0,0,0,0,0,0,0,0,0,0,0,0,0,0,0,0,0,0,0,0,0,0,0,0,0,0,0,0,0,0,0,0,0,0,0,0,0,0,0,0,0,0,0,0,0,0,0,0,0,0,0,0,0,0,0,0,0,0,0,0,9,13,10,0,0,0,0,0,0,0,0,0,0,0,0,0,0,0,0,0,0,0,0,0,0,0,0,0,0,0,0,0,0,0,0,0,0,0,0,0,0,0,0,0,0,0,0,0,0,0,0,0,0,0,0,0,0,0,0,0,0,0,0,0,0,0,0,0,0,0,0,0,0,0,0,0,0,0,0,0,0,0,0,0,0,0,0,0,0,0,0,0,8,8,8,0,0,0,0,0,0,0,0,0,0,0,0,0,0,0,0,0,0,0,0,0,0,0,0,0,0,0,0,0,0,0,0,0,0,0,0,0,0,0,0,0,0,0,0,0,0,0,0,0,0,0,0,0,0,0,0,0,0,0,0,0,0,0,0,0,0,0,0,0,0,0,0,0,0,0,0,0,0,0,0,0,0,0,0,0,0,0,0,0,10,13,10,0,0,0,0,0,0,0,0,0,0,0,0,0,0,0,0,0,0,0,0,0,0,0,0,0,0,0,0,0,0,0,0,0,0,0,0,0,0,0,0,0,0,0,0,0,0,0,0,0,0,0,0,0,0,0,0,0,0,0,0,0,0,0,0,0,0,0,0,0,0,0,0,0,0,0,0,0,0,0,0,0,0,0,0,0,0,0,0,0,8,11,8,0,0,0,0,0,0,0,0,0,0,0,0,0,0,0,0,0,0,0,0,0,0,0,0,0,0,0,0,0,0,0,0,0,0,0,0,0,0,0,0,0,0,0,0,0,0,0,0,0,0,0,0,0,0,0,0,0,0,0,0,0,0,0,0,0,0,0,0,0,0,0,0,0,0,0,0,0,0,0,0,0,0,0,0,0,0,0,0,0,9,13,10,0,0,0,0,0,0,0,0,0,0,0,0,0,0,0,0,0,0,0,0,0,0,0,0,0,0,0,0,0,0,0,0,0,0,0,0,0,0,0,0,0,0,0,0,0,0,0,0,0,0,0,0,0,0,0,0,0,0,0,0,0,0,0,0,0,0,0,0,0,0,0,0,0,0,0,0,0,0,0,0,0,0,0,0,0,0,0,0,0,10,10,8,0,0,0,0,0,0,0,0,0,0,0,0,0,0,0,0,0,0,0,0,0,0,0,0,0,0,0,0,0,0,0,0,0,0,0,0,0,0,0,0,0,0,0,0,0,0,0,0,0,0,0,0,0,0,0,0,0,0,0,0,0,0,0,0,0,0,0,0,0,0,0,0,0,0,0,0,0,0,0,0,0,0,0,0,0,0,0,0,0,11,13,8,0,0,0,0,0,0,0,0,0,0,0,0,0,0,0,0,0,0,0,0,0,0,0,0,0,0,0,0,0,0,0,0,0,0,0,0,0,0,0,0,0,0,0,0,0,0,0,0,0,0,0,0,0,0,0,0,0,0,0,0,0,0,0,0,0,0,0,0,0,0,0,0,0,0,0,0,0,0,0,0,0,0,0,0,0,0,0,0,0,8,8,9,0,0,0,0,0,0,0,0,0,0,0,0,0,0,0,0,0,0,0,0,0,0,0,0,0,0,0,0,0,0,0,0,0,0,0,0,0,0,0,0,0,0,0,0,0,0,0,0,0,0,0,0,0,0,0,0,0,0,0,0,0,0,0,0,0,0,0,0,0,0,0,0,0,0,0,0,0,0,0,0,0,0,0,0,0,0,0,0,0,11,13,11,0,0,0,0,0,0,0,0,0,0,0,0,0,0,0,0,0,0,0,0,0,0,0,0,0,0,0,0,0,0,0,0,0,0,0,0,0,0,0,0,0,0,0,0,0,0,0,0,0,0,0,0,0,0,0,0,0,0,0,0,0,0,0,0,0,0,0,0,0,0,0,0,0,0,0,0,0,0,0,0,0,0,0,0,0,0,0,0,0,11,8,11,0,0,0,0,0,0,0,0,0,0,0,0,0,0,0,0,0,0,0,0,0,0,0,0,0,0,0,0,0,0,0,0,0,0,0,0,0,0,0,0,0,0,0,0,0,0,0,0,0,0,0,0,0,0,0,0,0,0,0,0,0,0,0,0,0,0,0,0,0,0,0,0,0,0,0,0,0,0,0,0,0,0,0,0,0,0,0,0,0,8,11,8,0,0,0,0,0,0,0,0,0,0,0,0,0,0,0,0,0,0,0,0,0,0,0,0,0,0,0,0,0,0,0,0,0,0,0,0,0,0,0,0,0,0,0,0,0,0,0,0,0,0,0,0,0,0,0,0,0,0,0,0,0,0,0,0,0,0,0,0,0,0,0,0,0,0,0,0,0,0,0,0,0,0,0,0,0,0,0,0,0,14,15,14,0,0,0,0,0,0,0,0,0,0,0,0,0,0,0,0,0,0,0,0,0,0,0,0,0,0,0,0,0,0,0,0,0,0,0,0,0,0,0,0,0,0,0,0,0,0,0,0,0,0,0,0,0,0,0,0,0,0,0,0,0,0,0,0,0,0,0,0,0,0,0,0,0,0,0,0,0,0,0,0,0,0,0,0,0,0,0,0,0,16,17,16,0,0,0,0,0,0,0,0,0,0,0,0,0,0,0,0,0,0,0,0,0,0,0,0,0,0,0,0,0,0,0,0,0,0,0,0,0,0,0,0,0,0,0,0,0,0,0,0,0,0,0,0,0,0,0,0,0,0,0,0,0,0,0,0,0,0,0,10,11,9,11,8,8,8,10,9,11,9,11,11,9,11,10,10,10,9,9,18,19,8,8,9,18,19,8,8,8,9,8,11,9,11,8,11,11,8,8,8,11,11,9,10,8,8,9,11,8,10,11,10,8,8,8,8,9,8,8,8,11,8,9,10,8,9,10,11,11,9,10,8,8,8,8,11,8,9,11,9,10,11,10,9,8,9,8,8,9,8,8,12,8,12,8,12,10,12,9,12,9,12,9,12,8,12,9,12,11,12,11,20,21,11,9,11,20,21,10,12,11,12,9,12,8,12,8,12,9,12,8,12,8,12,8,12,9,12,11,12,9,12,10,12,8,12,10,12,11,12,9,12,11,12,11,12,8,12,11,12,8,12,8,12,9,12,11,12,8,12,8,12,10,12,10,12,11,12,8,12,9,12,11,10,8,9,10,10,10,8,9,9,8,11,10,10,8,9,11,10,8,8,8,18,19,11,8,11,18,19,8,8,11,9,11,10,8,10,11,9,10,8,9,10,10,9,8,8,9,8,11,8,9,8,9,10,9,8,11,8,8,10,9,8,8,10,9,9,11,11,9,9,8,8,8,10,8,9,11,10,11,10,10,8,8,8,8,8,8,8,9,10,11,10,11,0,0,0,0,0,0,0,0,0,0,0,0,0,0,0,0,0,0,0,0,0,0,14,15,14,0,0,0,0,0,0,0,0,0,0,0,0,0,0,0,0,0,0,0,0,0,0,0,0,0,0,0,0,0,0,0,0,0,0,0,0,0,0,0,0,0,0,0,0,0,0,0,0,0,0,0,0,0,0,0,0,0,0,0,0,0,0,0,0,0,0,0,0,0,0,0,0,0,0,0,0,0,0,0,0,0,0,0,0,0,0,0,0,0,16,17,16,0,0,0,0,0,0,0,0,0,0,0,0,0,0,0,0,0,0,0,0,0,0,0,0,0,0,0,0,0,0,0,0,0,0,0,0,0,0,0,0,0,0,0,0,0,0,0,0,0,0,0,0,0,0,0,0,0,0,0,0,0,0,0,0,0,0,0,0,0,0,0,0,0,0,0,0,0,0,0,0,0,0,0,0,0,0,0,0,0,8,11,8,0,0,0,0,0,0,0,0,0,0,0,0,0,0,0,0,0,0,0,0,0,0,0,0,0,0,0,0,0,0,0,0,0,0,0,0,0,0,0,0,0,0,0,0,0,0,0,0,0,0,0,0,0,0,0,0,0,0,0,0,0,0,0,0,0,0,0,0,0,0,0,0,0,0,0,0,0,0,0,0,0,0,0,0,0,0,0,0,0,8,9,10,0,0,0,0,0,0,0,0,0,0,0,0,0,0,0,0,0,0,0,0,0,0,0,0,0,0,0,0,0,0,0,0,0,0,0,0,0,0,0,0,0,0,0,0,0,0,0,0,0,0,0,0,0,0,0,0,0,0,0,0,0,0,0,0,0,0,0,0,0,0,0,0,0,0,0,0,0,0,0,0,0,0,0,0,0,0,0,0,0,10,13,8,0,0,0,0,0,0,0,0,0,0,0,0,0,0,0,0,0,0,0,0,0,0,0,0,0,0,0,0,0,0,0,0,0,0,0,0,0,0,0,0,0,0,0,0,0,0,0,0,0,0,0,0,0,0,0,0,0,0,0,0,0,0,0,0,0,0,0,0,0,0,0,0,0,0,0,0,0,0,0,0,0,0,0,0,0,0,0,0,0,8,9,11,0,0,0,0,0,0,0,0,0,0,0,0,0,0,0,0,0,0,0,0,0,0,0,0,0,0,0,0,0,0,0,0,0,0,0,0,0,0,0,0,0,0,0,0,0,0,0,0,0,0,0,0,0,0,0,0,0,0,0,0,0,0,0,0,0,0,0,0,0,0,0,0,0,0,0,0,0,0,0,0,0,0,0,0,0,0,0,0,0,8,13,8,0,0,0,0,0,0,0,0,0,0,0,0,0,0,0,0,0,0,0,0,0,0,0,0,0,0,0,0,0,0,0,0,0,0,0,0,0,0,0,0,0,0,0,0,0,0,0,0,0,0,0,0,0,0,0,0,0,0,0,0,0,0,0,0,0,0,0,0,0,0,0,0,0,0,0,0,0,0,0,0,0,0,0,0,0,0,0,0,0,10,9,9,0,0,0,0,0,0,0,0,0,0,0,0,0,0,0,0,0,0,0,0,0,0,0,0,0,0,0,0,0,0,0,0,0,0,0,0,0,0,0,0,0,0,0,0,0,0,0,0,0,0,0,0,0,0,0,0,0,0,0,0,0,0,0,0,0,0,0,0,0,0,0,0,0,0,0,0,0,0,0,0,0,0,0,0,0,0,0,0,0,8,13,8,0,0,0,0,0,0,0,0,0,0,0,0,0,0,0,0,0,0,0,0,0,0,0,0,0,0,0,0,0,0,0,0,0,0,0,0,0,0,0,0,0,0,0,0,0,0,0,0,0,0,0,0,0,0,0,0,0,0,0,0,0,0,0,0,0,0,0,0,0,0,0,0,0,0,0,0,0,0,0,0,0,0,0,0,0,0,0,0,0,11,10,10,0,0,0,0,0,0,0,0,0,0,0,0,0,0,0,0,0,0,0,0,0,0,0,0,0,0,0,0,0,0,0,0,0,0,0,0,0,0,0,0,0,0,0,0,0,0,0,0,0,0,0,0,0,0,0,0,0,0,0,0,0,0,0,0,0,0,0,0,0,0,0,0,0,0,0,0,0,0,0,0,0,0,0,0,0,0,0,0,0,11,13,10,0,0,0,0,0,0,0,0,0,0,0,0,0,0,0,0,0,0,0,0,0,0,0,0,0,0,0,0,0,0,0,0,0,0,0,0,0,0,0,0,0,0,0,0,0,0,0,0,0,0,0,0,0,0,0,0,0,0,0,0,0,0,0,0,0,0,0,0,0,0,0,0,0,0,0,0,0,0,0,0,0,0,0,0,0,0,0,0,0,9,10,8,0,0,0,0,0,0,0,0,0,0,0,0,0,0,0,0,0,0,0,0,0,0,0,0,0,0,0,0,0,0,0,0,0,0,0,0,0,0,0,0,0,0,0,0,0,0,0,0,0,0,0,0,0,0,0,0,0,0,0,0,0,0,0,0,0,0,0,0,0,0,0,0,0,0,0,0,0,0,0,0,0,0,0,0,0,0,0,0,0,10,13,10,0,0,0,0,0,0,0,0,0,0,0,0,0,0,0,0,0,0,0,0,0,0,0,0,0,0,0,0,0,0,0,0,0,0,0,0,0,0,0,0,0,0,0,0,0,0,0,0,0,0,0,0,0,0,0,0,0,0,0,0,0,0,0,0,0,0,0,0,0,0,0,0,0,0,0,0,0,0,0,0,0,0,0,0,0,0,0,0,0,8,11,10,0,0,0,0,0,0,0,0,0,0,0,0,0,0,0,0,0,0,0,0,0,0,0,0,0,0,0,0,0,0,0,0,0,0,0,0,0,0,0,0,0,0,0,0,0,0,0,0,0,0,0,0,0,0,0,0,0,0,0,0,0,0,0,0,0,0,0,0,0,0,0,0,0,0,0,0,0,0,0,0,0,0,0,0,0,0,0,0,0,10,13,9,0,0,0,0,0,0,0,0,0,0,0,0,0,0,0,0,0,0,0,0,0,0,0,0,0,0,0,0,0,0,0,0,0,0,0,0,0,0,0,0,0,0,0,0,0,0,0,0,0,0,0,0,0,0,0,0,0,0,0,0,0,0,0,0,0,0,0,0,0,0,0,0,0,0,0,0,0,0,0,0,0,0,0,0,0,0,0,0,0,8,10,8,0,0,0,0,0,0,0,0,0,0,0,0,0,0,0,0,0,0,0,0,0,0,0,0,0,0,0,0,0,0,0,0,0,0,0,0,0,0,0,0,0,0,0,0,0,0,0,0,0,0,0,0,0,0,0,0,0,0,0,0,0,0,0,0,0,0,0,0,0,0,0,0,0,0,0,0,0,0,0,0,0,0,0,0,0,0,0,0,0,10,13,9,0,0,0,0,0,0,0,0,0,0,0,0,0,0,0,0,0,0,0,0,0,0,0,0,0,0,0,0,0,0,0,0,0,0,0,0,0,0,0,0,0,0,0,0,0,0,0,0,0,0,0,0,0,0,0,0,0,0,0,0,0,0,0,0,0,0,0,0,0,0,0,0,0,0,0,0,0,0,0,0,0,0,0,0,0,0,0,0,0,8,10,10,0,0,0,0,0,0,0,0,0,0,0,0,0,0,0,0,0,0,0,0,0,0,0,0,0,0,0,0,0,0,0,0,0,0,0,0,0,0,0,0,0,0,0,0,0,0,0,0,0,0,0,0,0,0,0,0,0,0,0,0,0,0,0,0,0,0,0,0,0,0,0,0,0,0,0,0,0,0,0,0,0,0,0,0,0,0,0,0,0,8,13,10,0,0,0,0,0,0,0,0,0,0,0,0,0,0,0,0,0,0,0,0,0,0,0,0,0,0,0,0,0,0,0,0,0,0,0,0,0,0,0,0,0,0,0,0,0,0,0,0,0,0,0,0,0,0,0,0,0,0,0,0,0,0,0,0,0,0,0,0,0,0,0,0,0,0,0,0,0,0,0,0,0,0,0,0,0,0,0,0,0,8,8,10,0,0,0,0,0,0,0,0,0,0,0,0,0,0,0,0,0,0,0,0,0,0,0,0,0,0,0,0,0,0,0,0,0,0,0,0,0,0,0,0,0,0,0,0,0,0,0,0,0,0,0,0,0,0,0,0,0,0,0,0,0,0,0,0,0,0,0,0,0,0,0,0,0,0,0,0,0,0,0,0,0,0,0,0,0,0,0,0,0,8,13,8,0,0,0,0,0,0,0,0,0,0,0,0,0,0,0,0,0,0,0,0,0,0,0,0,0,0,0,0,0,0,0,0,0,0,0,0,0,0,0,0,0,0,0,0,0,0,0,0,0,0,0,0,0,0,0,0,0,0,0,0,0,0,0,0,0,0,0,0,0,0,0,0,0,0,0,0,0,0,0,0,0,0,0,0,0,0,0,0,0,8,11,9,0,0,0,0,0,0,0,0,0,0,0,0,0,0,0,0,0,0,0,0,0,0,0,0,0,0,0,0,0,0,0,0,0,0,0,0,0,0,0,0,0,0,0,0,0,0,0,0,0,0,0,0,0,0,0,0,0,0,0,0,0,0,0,0,0,0,0,0,0,0,0,0,0,0,0,0,0,0,0,0,0,0,0,0,0,0,0,0,0,9,13,11,0,0,0,0,0,0,0,0,0,0,0,0,0,0,0,0,0,0,0,0,0,0,0,0,0,0,0,0,0,0,0,0,0,0,0,0,0,0,0,0,0,0,0,0,0,0,0,0,0,0,0,0,0,0,0,0,0,0,0,0,0,0,0,0,0,0,0,0,0,0,0,0,0,0,0,0,0,0,0,0,0,0,0,0,0,0,0,0,0,9,8,11,0,0,0,0,0,0,0,0,0,0,0,0,0,0,0,0,0,0,0,0,0,0,0,0,0,0,0,0,0,0,0,0,0,0,0,0,0,0,0,0,0,0,0,0,0,0,0,0,0,0,0,0,0,0,0,0,0,0,0,0,0,0,0,0,0,0,0,0,0,0,0,0,0,0,0,0,0,0,0,0,0,0,0,0,0,0,0,0,0,9,13,10,0,0,0,0,0,0,0,0,0,0,0,0,0,0,0,0,0,0,0,0,0,0,0,0,0,0,0,0,0,0,0,0,0,0,0,0,0,0,0,0,0,0,0,0,0,0,0,0,0,0,0,0,0,0,0,0,0,0,0,0,0,0,0,0,0,0,0,0,0,0,0,0,0,0,0,0,0,0,0,0,0,0,0,0,0,0,0,0,0,8,10,9,0,0,0,0,0,0,0,0,0,0,0,0,0,0,0,0,0,0,0,0,0,0,0,0,0,0,0,0,0,0,0,0,0,0,0,0,0,0,0,0,0,0,0,0,0,0,0,0,0,0,0,0,0,0,0,0,0,0,0,0,0,0,0,0,0,0,0,0,0,0,0,0,0,0,0,0,0,0,0,0,0,0,0,0,0,0,0,0,0,8,13,11,0,0,0,0,0,0,0,0,0,0,0,0,0,0,0,0,0,0,0,0,0,0,0,0,0,0,0,0,0,0,0,0,0,0,0,0,0,0,0,0,0,0,0,0,0,0,0,0,0,0,0,0,0,0,0,0,0,0,0,0,0,0,0,0,0,0,0,0,0,0,0,0,0,0,0,0,0,0,0,0,0,0,0,0,0,0,0,0,0,8,11,11,0,0,0,0,0,0,0,0,0,0,0,0,0,0,0,0,0,0,0,0,0,0,0,0,0,0,0,0,0,0,0,0,0,0,0,0,0,0,0,0,0,0,0,0,0,0,0,0,0,0,0,0,0,0,0,0,0,0,0,0,0,0,0,0,0,0,0,0,0,0,0,0,0,0,0,0,0,0,0,0,0,0,0,0,0,0,0,0,0,8,13,9,0,0,0,0,0,0,0,0,0,0,0,0,0,0,0,0,0,0,0,0,0,0,0,0,0,0,0,0,0,0,0,0,0,0,0,0,0,0,0,0,0,0,0,0,0,0,0,0,0,0,0,0,0,0,0,0,0,0,0,0,0,0,0,0,0,0,0,0,0,0,0,0,0,0,0,0,0,0,0,0,0,0,0,0,0,0,0,0,0,10,10,11,0,0,0,0,0,0,0,0,0,0,0,0,0,0,0,0,0,0,0,0,0,0,0,0,0,0,0,0,0,0,0,0,0,0,0,0,0,0,0,0,0,0,0,0,0,0,0,0,0,0,0,0,0,0,0,0,0,0,0,0,0,0,0,0,0,0,0,0,0,0,0,0,0,0,0,0,0,0,0,0,0,0,0,0,0,0,0,0,0,9,13,9,0,0,0,0,0,0,0,0,0,0,0,0,0,0,0,0,0,0,0,0,0,0,0,0,0,0,0,0,0,0,0,0,0,0,0,0,0,0,0,0,0,0,0,0,0,0,0,0,0,0,0,0,0,0,0,0,0,0,0,0,0,0,0,0,0,0,0,0,0,0,0,0,0,0,0,0,0,0,0,0,0,0,0,0,0,0,0,0,0,8,11,9,0,0,0,0,0,0,0,0,0,0,0,0,0,0,0,0,0,0,0,0,0,0,0,0,0,0,0,0,0,0,0,0,0,0,0,0,0,0,0,0,0,0,0,0,0,0,0,0,0,0,0,0,0,0,0,0,0,0,0,0,0,0,0,0,0,0,0,0,0,0,0,0,0,0,0,0,0,0,0,0,0,0,0,0,0,0,0,0,0,8,13,11,0,0,0,0,0,0,0,0,0,0,0,0,0,0,0,0,0,0,0,0,0,0,0,0,0,0,0,0,0,0,0,0,0,0,0,0,0,0,0,0,0,0,0,0,0,0,0,0,0,0,0,0,0,0,0,0,0,0,0,0,0,0,0,0,0,0,0,0,0,0,0,0,0,0,0,0,0,0,0,0,0,0,0,0,0,0,0,0,0,9,10,11,0,0,0,0,0,0,0,0,0,0,0,0,0,0,0,0,0,0,0,0,0,0,0,0,0,0,0,0,0,0,0,0,0,0,0,0,0,0,0,0,0,0,0,0,0,0,0,0,0,0,0,0,0,0,0,0,0,0,0,0,0,0,0,0,0,0,0,0,0,0,0,0,0,0,0,0,0,0,0,0,0,0,0,0,0,0,0,0,0,10,13,8,0,0,0,0,0,0,0,0,0,0,0,0,0,0,0,0,0,0,0,0,0,0,0,0,0,0,0,0,0,0,0,0,0,0,0,0,0,0,0,0,0,0,0,0,0,0,0,0,0,0,0,0,0,0,0,0,0,0,0,0,0,0,0,0,0,0,0,0,0,0,0,0,0,0,0,0,0,0,0,0,0,0,0,0,0,0,0,0,0,8,10,9,0,0,0,0,0,0,0,0,0,0,0,0,0,0,0,0,0,0,0,0,0,0,0,0,0,0,0,0,0,0,0,0,0,0,0,0,0,0,0,0,0,0,0,0,0,0,0,0,0,0,0,0,0,0,0,0,0,0,0,0,0,0,0,0,0,0,0,0,0,0,0,0,0,0,0,0,0,0,0,0,0,0,0,0,0,0,0,0,0,8,13,10,0,0,0,0,0,0,0,0,0,0,0,0,0,0,0,0,0,0,0,0,0,0,0,0,0,0,0,0,0,0,0,0,0,0,0,0,0,0,0,0,0,0,0,0,0,0,0,0,0,0,0,0,0,0,0,0,0,0,0,0,0,0,0,0,0,0,0,0,0,0,0,0,0,0,0,0,0,0,0,0,0,0,0,0,0,0,0,0,0,8,8,8,0,0,0,0,0,0,0,0,0,0,0,0,0,0,0,0,0,0,0,0,0,0,0,0,0,0,0,0,0,0,0,0,0,0,0,0,0,0,0,0,0,0,0,0,0,0,0,0,0,0,0,0,0,0,0,0,0,0,0,0,0,0,0,0,0,0,0,0,0,0,0,0,0,0,0,0,0,0,0,0,0,0,0,0,0,0,0,0,0,10,13,9,0,0,0,0,0,0,0,0,0,0,0,0,0,0,0,0,0,0,0,0,0,0,0,0,0,0,0,0,0,0,0,0,0,0,0,0,0,0,0,0,0,0,0,0,0,0,0,0,0,0,0,0,0,0,0,0,0,0,0,0,0,0,0,0,0,0,0,0,0,0,0,0,0,0,0,0,0,0,0,0,0,0,0,0,0,0,0,0,0,11,8,8,0,0,0,0,0,0,0,0,0,0,0,0,0,0,0,0,0,0,0,0,0,0,0,0,0,0,0,0,0,0,0,0,0,0,0,0,0,0,0,0,0,0,0,0,0,0,0,0,0,0,0,0,0,0,0,0,0,0,0,0,0,0,0,0,0,0,0,0,0,0,0,0,0,0,0,0,0,0,0,0,0,0,0,0,0,0,0,0,0,9,13,10,0,0,0,0,0,0,0,0,0,0,0,0,0,0,0,0,0,0,0,0,0,0,0,0,0,0,0,0,0,0,0,0,0,0,0,0,0,0,0,0,0,0,0,0,0,0,0,0,0,0,0,0,0,0,0,0,0,0,0,0,0,0,0,0,0,0,0,0,0,0,0,0,0,0,0,0,0,0,0,0,0,0,0,0,0,0,0,0,0,11,11,8,0,0,0,0,0,0,0,0,0,0,0,0,0,0,0,0,0,0,0,0,0,0,0,0,0,0,0,0,0,0,0,0,0,0,0,0,0,0,0,0,0,0,0,0,0,0,0,0,0,0,0,0,0,0,0,0,0,0,0,0,0,0,0,0,0,0,0,0,0,0,0,0,0,0,0,0,0,0,0,0,0,0,0,0,0,0,0,0,0,11,13,9,0,0,0,0,0,0,0,0,0,0,0,0,0,0,0,0,0,0,0,0,0,0,0,0,0,0,0,0,0,0,0,0,0,0,0,0,0,0,0,0,0,0,0,0,0,0,0,0,0,0,0,0,0,0,0,0,0,0,0,0,0,0,0,0,0,0,0,0,0,0,0,0,0,0,0,0,0,0,0,0,0,0,0,0,0,0,0,0,0,9,11,10,0,0,0,0,0,0,0,0,0,0,0,0,0,0,0,0,0,0,0,0,0,0,0,0,0,0,0,0,0,0,0,0,0,0,0,0,0,0,0,0,0,0,0,0,0,0,0,0,0,0,0,0,0,0,0,0,0,0,0,0,0,0,0,0,0,0,0,0,0,0,0,0,0,0,0,0,0,0,0,0,0,0,0,0,0,0,0,0,0,8,13,10,0,0,0,0,0,0,0,0,0,0,0,0,0,0,0,0,0,0,0,0,0,0,0,0,0,0,0,0,0,0,0,0,0,0,0,0,0,0,0,0,0,0,0,0,0,0,0,0,0,0,0,0,0,0,0,0,0,0,0,0,0,0,0,0,0,0,0,0,0,0,0,0,0,0,0,0,0,0,0,0,0,0,0,0,0,0,0,0,0,8,8,9,0,0,0,0,0,0,0,0,0,0,0,0,0,0,0,0,0,0,0,0,0,0,0,0,0,0,0,0,0,0,0,0,0,0,0,0,0,0,0,0,0,0,0,0,0,0,0,0,0,0,0,0,0,0,0,0,0,0,0,0,0,0,0,0,0,0,0,0,0,0,0,0,0,0,0,0,0,0,0,0,0,0,0,0,0,0,0,0,0,11,13,10,0,0,0,0,0,0,0,0,0,0,0,0,0,0,0,0,0,0,0,0,0,0,0,0,0,0,0,0,0,0,0,0,0,0,0,0,0,0,0,0,0,0,0,0,0,0,0,0,0,0,0,0,0,0,0,0,0,0,0,0,0,0,0,0,0,0,0,0,0,0,0,0,0,0,0,0,0,0,0,0,0,0,0,0,0,0,0,0,0,10,9,9,0,0,0,0,0,0,0,0,0,0,0,0,0,0,0,0,0,0,0,0,0,0,0,0,0,0,0,0,0,0,0,0,0,0,0,0,0,0,0,0,0,0,0,0,0,0,0,0,0,0,0,0,0,0,0,0,0,0,0,0,0,0,0,0,0,0,0,0,0,0,0,0,0,0,0,0,0,0,0,0,0,0,0,0,0,0,0,0,0,11,13,8,0,0,0,0,0,0,0,0,0,0,0,0,0,0,0,0,0,0,0,0,0,0,0,0,0,0,0,0,0,0,0,0,0,0,0,0,0,0,0,0,0,0,0,0,0,0,0,0,0,0,0,0,0,0,0,0,0,0,0,0,0,0,0,0,0,0,0,0,0,0,0,0,0,0,0,0,0,0,0,0,0,0,0,0,0,0,0,0,0,9,11,10,0,0,0,0,0,0,0,0,0,0,0,0,0,0,0,0,0,0,0,0,0,0,0,0,0,0,0,0,0,0,0,0,0,0,0,0,0,0,0,0,0,0,0,0,0,0,0,0,0,0,0,0,0,0,0,0,0,0,0,0,0,0,0,0,0,0,0,0,0,0,0,0,0,0,0,0,0,0,0,0,0,0,0,0,0,0,0,0,0,10,13,9,0,0,0,0,0,0,0,0,0,0,0,0,0,0,0,0,0,0,0,0,0,0,0,0,0,0,0,0,0,0,0,0,0,0,0,0,0,0,0,0,0,0,0,0,0,0,0,0,0,0,0,0,0,0,0,0,0,0,0,0,0,0,0,0,0,0,0,0,0,0,0,0,0,0,0,0,0,0,0,0,0,0,0,0,0,0,0,0,0,8,8,8,0,0,0,0,0,0,0,0,0,0,0,0,0,0,0,0,0,0,0,0,0,0,0,0,0,0,0,0,0,0,0,0,0,0,0,0,0,0,0,0,0,0,0,0,0,0,0,0,0,0,0,0,0,0,0,0,0,0,0,0,0,0,0,0,0,0,0,0,0,0,0,0,0,0,0,0,0,0,0,0,0,0,0,0,0,0,0,0,0,11,13,11,0,0,0,0,0,0,0,0,0,0,0,0,0,0,0,0,0,0,0,0,0,0,0,0,0,0,0,0,0,0,0,0,0,0,0,0,0,0,0,0,0,0,0,0,0,0,0,0,0,0,0,0,0,0,0,0,0,0,0,0,0,0,0,0,0,0,0,0,0,0,0,0,0,0,0,0,0,0,0,0,0,0,0,0,0,0,0,0,0,11,8,11,0,0,0,0,0,0,0,0,0,0,0,0,0,0,0,0,0,0,0,0,0,0,0,0,0,0,0,0,0,0,0,0,0,0,0,0,0,0,0,0,0,0,0,0,0,0,0,0,0,0,0,0,0,0,0,0,0,0,0,0,0,0,0,0,0,0,0,0,0,0,0,0,0,0,0,0,0,0,0,0,0,0,0,0,0,0,0,0,0,8,13,11,0,0,0,0,0,0,0,0,0,0,0,0,0,0,0,0,0,0,0,0,0,0,0,0,0,0,0,0,0,0,0,0,0,0,0,0,0,0,0,0,0,0,0,0,0,0,0,0,0,0,0,0,0,0,0,0,0,0,0,0,0,0,0,0,0,0,0,0,0,0,0,0,0,0,0,0,0,0,0,0,0,0,0,0,0,0,0,0,0,11,10,10,0,0,0,0,0,0,0,0,0,0,0,0,0,0,0,0,0,0,0,0,0,0,0,0,0,0,0,0,0,0,0,0,0,0,0,0,0,0,0,0,0,0,0,0,0,0,0,0,0,0,0,0,0,0,0,0,0,0,0,0,0,0,0,0,0,0,0,0,0,0,0,0,0,0,0,0,0,0,0,0,0,0,0,0,0,0,0,0,0,8,13,8,0,0,0,0,0,0,0,0,0,0,0,0,0,0,0,0,0,0,0,0,0,0,0,0,0,0,0,0,0,0,0,0,0,0,0,0,0,0,0,0,0,0,0,0,0,0,0,0,0,0,0,0,0,0,0,0,0,0,0,0,0,0,0,0,0,0,0,0,0,0,0,0,0,0,0,0,0,0,0,0,0,0,0,0,0,0,0,0,0,9,8,10,0,0,0,0,0,0,0,0,0,0,0,0,0,0,0,0,0,0,0,0,0,0,0,0,0,0,0,0,0,0,0,0,0,0,0,0,0,0,0,0,0,0,0,0,0,0,0,0,0,0,0,0,0,0,0,0,0,0,0,0,0,0,0,0,0,0,0,0,0,0,0,0,0,0,0,0,0,0,0,0,0,0,0,0,0,0,0,0,0,11,13,8,0,0,0,0,0,0,0,0,0,0,0,0,0,0,0,0,0,0,0,0,0,0,0,0,0,0,0,0,0,0,0,0,0,0,0,0,0,0,0,0,0,0,0,0,0,0,0,0,0,0,0,0,0,0,0,0,0,0,0,0,0,0,0,0,0,0,0,0,0,0,0,0,0,0,0,0,0,0,0,0,0,0,0,0,0,0,0,0,0,10,10,8,0,0,0,0,0,0,0,0,0,0,0,0,0,0,0,0,0,0,0,0,0,0,0,0,0,0,0,0,0,0,0,0,0,0,0,0,0,0,0,0,0,0,0,0,0,0,0,0,0,0,0,0,0,0,0,0,0,0,0,0,0,0,0,0,0,0,0,0,0,0,0,0,0,0,0,0,0,0,0,0,0,0,0,0,0,0,0,0,0,8,13,10,0,0,0,0,0,0,0,0,0,0,0,0,0,0,0,0,0,0,0,0,0,0,0,0,0,0,0,0,0,0,0,0,0,0,0,0,0,0,0,0,0,0,0,0,0,0,0,0,0,0,0,0,0,0,0,0,0,0,0,0,0,0,0,0,0,0,0,0,0,0,0,0,0,0,0,0,0,0,0,0,0,0,0,0,0,0,0,0,0,8,9,8,0,0,0,0,0,0,0,0,0,0,0,0,0,0,0,0,0,0,0,0,0,0,0,0,0,0,0,0,0,0,0,0,0,0,0,0,0,0,0,0,0,0,0,0,0,0,0,0,0,0,0,0,0,0,0,0,0,0,0,0,0,0,0,0,0,0,0,0,0,0,0,0,0,0,0,0,0,0,0,0,0,0,0,0,0,0,0,0,0,10,13,8,0,0,0,0,0,0,0,0,0,0,0,0,0,0,0,0,0,0,0,0,0,0,0,0,0,0,0,0,0,0,0,0,0,0,0,0,0,0,0,0,0,0,0,0,0,0,0,0,0,0,0,0,0,0,0,0,0,0,0,0,0,0,0,0,0,0,0,0,0,0,0,0,0,0,0,0,0,0,0,0,0,0,0,0,0,0,0,0,0,11,9,10,0,0,0,0,0,0,0,0,0,0,0,0,0,0,0,0,0,0,0,0,0,0,0,0,0,0,0,0,0,0,0,0,0,0,0,0,0,0,0,0,0,0,0,0,0,0,0,0,0,0,0,0,0,0,0,0,0,0,0,0,0,0,0,0,0,0,0,0,0,0,0,0,0,0,0,0,0,0,0,0,0,0,0,0,0,0,0,0,0,8,13,8,0,0,0,0,0,0,0,0,0,0,0,0,0,0,0,0,0,0,0,0,0,0,0,0,0,0,0,0,0,0,0,0,0,0,0,0,0,0,0,0,0,0,0,0,0,0,0,0,0,0,0,0,0,0,0,0,0,0,0,0,0,0,0,0,0,0,0,0,0,0,0,0,0,0,0,0,0,0,0,0,0,0,0,0,0,0,0,0,0,8,10,11,0,0,0,0,0,0,0,0,0,0,0,0,0,0,0,0,0,0,0,0,0,0,0,0,0,0,0,0,0,0,0,0,0,0,0,0,0,0,0,0,0,0,0,0,0,0,0,0,0,0,0,0,0,0,0,0,0,0,0,0,0,0,0,0,0,0,0,0,0,0,0,0,0,0,0,0,0,0,0,0,0,0,0,0,0,0,0,0,0,11,13,11,0,0,0,0,0,0,0,0,0,0,0,0,0,0,0,0,0,0,0,0,0,0,0,0,0,0,0,0,0,0,0,0,0,0,0,0,0,0,0,0,0,0,0,0,0,0,0,0,0,0,0,0,0,0,0,0,0,0,0,0,0,0,0,0,0,0,0,0,0,0,0,0,0,0,0,0,0,0,0,0,0,0,0,0,0,0,0,0,0,8,8,8,0,0,0,0,0,0,0,0,0,0,0,0,0,0,0,0,0,0,0,0,0,0,0,0,0,0,0,0,0,0,0,0,0,0,0,0,0,0,0,0,0,0,0,0,0,0,0,0,0,0,0,0,0,0,0,0,0,0,0,0,0,0,0,0,0,0,0]},{"id":3,"name":"props-below","type":"objectgroup","x":0,"y":0,"opacity":1,"visible":true,"draworder":"topdown","objects":[{"id":183,"name":"soil_left","type":"","x":592,"y":208,"width":30,"height":46,"rotation":0,"visible":true,"point":false,"properties":[]},{"id":184,"name":"soil_mid","type":"","x":608,"y":208,"width":30,"height":46,"rotation":0,"visible":true,"point":false,"properties":[]},{"id":185,"name":"soil_right","type":"","x":624,"y":208,"width":30,"height":46,"rotation":0,"visible":true,"point":false,"properties":[]},{"id":186,"name":"crop_cabbage","type":"","x":592,"y":208,"width":30,"height":30,"rotation":0,"visible":true,"point":false,"properties":[]},{"id":187,"name":"crop_cabbage","type":"","x":608,"y":208,"width":30,"height":30,"rotation":0,"visible":true,"point":false,"properties":[]},{"id":188,"name":"crop_cabbage","type":"","x":624,"y":208,"width":30,"height":30,"rotation":0,"visible":true,"point":false,"properties":[]},{"id":189,"name":"soil_left","type":"","x":592,"y":240,"width":30,"height":46,"rotation":0,"visible":true,"point":false,"properties":[]},{"id":190,"name":"soil_mid","type":"","x":608,"y":240,"width":30,"height":46,"rotation":0,"visible":true,"point":false,"properties":[]},{"id":191,"name":"soil_right","type":"","x":624,"y":240,"width":30,"height":46,"rotation":0,"visible":true,"point":false,"properties":[]},{"id":192,"name":"crop_berry","type":"","x":592,"y":240,"width":30,"height":30,"rotation":0,"visible":true,"point":false,"properties":[]},{"id":193,"name":"crop_berry","type":"","x":608,"y":240,"width":30,"height":30,"rotation":0,"visible":true,"point":false,"properties":[]},{"id":194,"name":"crop_berry","type":"","x":624,"y":240,"width":30,"height":30,"rotation":0,"visible":true,"point":false,"properties":[]},{"id":195,"name":"soil_left","type":"","x":592,"y":272,"width":30,"height":46,"rotation":0,"visible":true,"point":false,"properties":[]},{"id":196,"name":"soil_mid","type":"","x":608,"y":272,"width":30,"height":46,"rotation":0,"visible":true,"point":false,"properties":[]},{"id":197,"name":"soil_right","type":"","x":624,"y":272,"width":30,"height":46,"rotation":0,"visible":true,"point":false,"properties":[]},{"id":198,"name":"crop_cabbage","type":"","x":592,"y":272,"width":30,"height":30,"rotation":0,"visible":true,"point":false,"properties":[]},{"id":199,"name":"crop_cabbage","type":"","x":608,"y":272,"width":30,"height":30,"rotation":0,"visible":true,"point":false,"properties":[]},{"id":200,"name":"crop_cabbage","type":"","x":624,"y":272,"width":30,"height":30,"rotation":0,"visible":true,"point":false,"properties":[]}]},{"id":4,"name":"buildings","type":"objectgroup","x":0,"y":0,"opacity":1,"visible":true,"draworder":"topdown","objects":[{"id":1,"name":"office_building","type":"","x":64,"y":0,"width":206,"height":318,"rotation":0,"visible":true,"point":false,"properties":[{"name":"label","type":"string","value":"Office"},{"name":"targetVenue","type":"string","value":"office"}]},{"id":3,"name":"cafe_building","type":"","x":464,"y":112,"width":126,"height":206,"rotation":0,"visible":true,"point":false,"properties":[{"name":"label","type":"string","value":"Café"},{"name":"targetVenue","type":"string","value":"cafe"}]},{"id":5,"name":"villa_building","type":"","x":80,"y":432,"width":166,"height":238,"rotation":0,"visible":true,"point":false,"properties":[{"name":"label","type":"string","value":"Dorm"},{"name":"targetVenue","type":"string","value":"dorm"}]},{"id":7,"name":"library_building","type":"","x":480,"y":432,"width":142,"height":158,"rotation":0,"visible":true,"point":false,"properties":[{"name":"label","type":"string","value":"Library"},{"name":"targetVenue","type":"string","value":"library"}]},{"id":9,"name":"barn","type":"","x":592,"y":32,"width":142,"height":174,"rotation":0,"visible":true,"point":false,"properties":[{"name":"label","type":"string","value":"Farm"}]}]},{"id":5,"name":"props-above","type":"objectgroup","x":0,"y":0,"opacity":1,"visible":true,"draworder":"topdown","objects":[{"id":11,"name":"tree_oak_big","type":"","x":0,"y":16,"width":94,"height":110,"rotation":0,"visible":true,"point":false,"properties":[]},{"id":13,"name":"tree_oak_big","type":"","x":272,"y":192,"width":94,"height":110,"rotation":0,"visible":true,"point":false,"properties":[]},{"id":15,"name":"tree_oak_med","type":"","x":16,"y":208,"width":78,"height":94,"rotation":0,"visible":true,"point":false,"properties":[]},{"id":17,"name":"tree_oak_big","type":"","x":448,"y":0,"width":94,"height":110,"rotation":0,"visible":true,"point":false,"properties":[]},{"id":19,"name":"tree_birch","type":"","x":528,"y":48,"width":62,"height":78,"rotation":0,"visible":true,"point":false,"properties":[]},{"id":21,"name":"tree_oak_med","type":"","x":0,"y":416,"width":78,"height":94,"rotation":0,"visible":true,"point":false,"properties":[]},{"id":23,"name":"tree_birch","type":"","x":256,"y":432,"width":62,"height":78,"rotation":0,"visible":true,"point":false,"properties":[]},{"id":25,"name":"tree_oak_big","type":"","x":240,"y":528,"width":94,"height":110,"rotation":0,"visible":true,"point":false,"properties":[]},{"id":27,"name":"tree_oak_big","type":"","x":640,"y":432,"width":94,"height":110,"rotation":0,"visible":true,"point":false,"properties":[]},{"id":29,"name":"tree_oak_med","type":"","x":704,"y":496,"width":78,"height":94,"rotation":0,"visible":true,"point":false,"properties":[]},{"id":31,"name":"tree_oak_big","type":"","x":624,"y":576,"width":94,"height":110,"rotation":0,"visible":true,"point":false,"properties":[]},{"id":33,"name":"tree_birch","type":"","x":704,"y":640,"width":62,"height":78,"rotation":0,"visible":true,"point":false,"properties":[]},{"id":35,"name":"tree_oak_med","type":"","x":448,"y":640,"width":78,"height":94,"rotation":0,"visible":true,"point":false,"properties":[]},{"id":37,"name":"tree_oak_big","type":"","x":32,"y":640,"width":94,"height":110,"rotation":0,"visible":true,"point":false,"properties":[]},{"id":39,"name":"street_lamp","type":"lamp","x":96,"y":288,"width":46,"height":78,"rotation":0,"visible":true,"point":false,"properties":[]},{"id":41,"name":"street_lamp","type":"lamp","x":240,"y":288,"width":46,"height":78,"rotation":0,"visible":true,"point":false,"properties":[]},{"id":43,"name":"street_lamp","type":"lamp","x":480,"y":288,"width":46,"height":78,"rotation":0,"visible":true,"point":false,"properties":[]},{"id":45,"name":"street_lamp","type":"lamp","x":640,"y":288,"width":46,"height":78,"rotation":0,"visible":true,"point":false,"properties":[]},{"id":47,"name":"street_lamp","type":"lamp","x":96,"y":416,"width":46,"height":78,"rotation":0,"visible":true,"point":false,"properties":[]},{"id":49,"name":"street_lamp","type":"lamp","x":240,"y":416,"width":46,"height":78,"rotation":0,"visible":true,"point":false,"properties":[]},{"id":51,"name":"street_lamp","type":"lamp","x":528,"y":416,"width":46,"height":78,"rotation":0,"visible":true,"point":false,"properties":[]},{"id":53,"name":"street_lamp","type":"lamp","x":704,"y":416,"width":46,"height":78,"rotation":0,"visible":true,"point":false,"properties":[]},{"id":55,"name":"street_lamp","type":"lamp","x":304,"y":80,"width":46,"height":78,"rotation":0,"visible":true,"point":false,"properties":[]},{"id":57,"name":"street_lamp","type":"lamp","x":304,"y":512,"width":46,"height":78,"rotation":0,"visible":true,"point":false,"properties":[]},{"id":59,"name":"street_lamp","type":"lamp","x":432,"y":192,"width":46,"height":78,"rotation":0,"visible":true,"point":false,"properties":[]},{"id":61,"name":"street_lamp","type":"lamp","x":432,"y":608,"width":46,"height":78,"rotation":0,"visible":true,"point":false,"properties":[]},{"id":63,"name":"bench","type":"","x":528,"y":304,"width":46,"height":46,"rotation":0,"visible":true,"point":false,"properties":[]},{"id":65,"name":"bench","type":"","x":192,"y":384,"width":46,"height":46,"rotation":0,"visible":true,"point":false,"properties":[]},{"id":67,"name":"bench","type":"","x":672,"y":528,"width":46,"height":46,"rotation":0,"visible":true,"point":false,"properties":[]},{"id":69,"name":"trash_can","type":"","x":576,"y":304,"width":46,"height":46,"rotation":0,"visible":true,"point":false,"properties":[]},{"id":71,"name":"trash_can","type":"","x":272,"y":384,"width":46,"height":46,"rotation":0,"visible":true,"point":false,"properties":[]},{"id":73,"name":"hydrant","type":"","x":272,"y":288,"width":30,"height":46,"rotation":0,"visible":true,"point":false,"properties":[]},{"id":75,"name":"car_right_1","type":"","x":128,"y":361.6,"width":78,"height":62,"rotation":0,"visible":true,"point":false,"properties":[]},{"id":77,"name":"car_left_1","type":"","x":528,"y":305.6,"width":78,"height":62,"rotation":0,"visible":true,"point":false,"properties":[]},{"id":79,"name":"car_right_1","type":"","x":672,"y":361.6,"width":78,"height":62,"rotation":0,"visible":true,"point":false,"properties":[]},{"id":81,"name":"fence_top_middle","type":"","x":592,"y":32,"width":30,"height":30,"rotation":0,"visible":true,"point":false,"properties":[]},{"id":83,"name":"fence_bottom_middle","type":"","x":592,"y":288,"width":30,"height":30,"rotation":0,"visible":true,"point":false,"properties":[]},{"id":85,"name":"fence_top_middle","type":"","x":608,"y":32,"width":30,"height":30,"rotation":0,"visible":true,"point":false,"properties":[]},{"id":87,"name":"fence_bottom_middle","type":"","x":608,"y":288,"width":30,"height":30,"rotation":0,"visible":true,"point":false,"properties":[]},{"id":89,"name":"fence_top_middle","type":"","x":624,"y":32,"width":30,"height":30,"rotation":0,"visible":true,"point":false,"properties":[]},{"id":91,"name":"fence_bottom_middle","type":"","x":624,"y":288,"width":30,"height":30,"rotation":0,"visible":true,"point":false,"properties":[]},{"id":93,"name":"fence_top_middle","type":"","x":640,"y":32,"width":30,"height":30,"rotation":0,"visible":true,"point":false,"properties":[]},{"id":95,"name":"fence_top_middle","type":"","x":656,"y":32,"width":30,"height":30,"rotation":0,"visible":true,"point":false,"properties":[]},{"id":97,"name":"fence_top_middle","type":"","x":672,"y":32,"width":30,"height":30,"rotation":0,"visible":true,"point":false,"properties":[]},{"id":99,"name":"fence_top_middle","type":"","x":688,"y":32,"width":30,"height":30,"rotation":0,"visible":true,"point":false,"properties":[]},{"id":101,"name":"fence_bottom_middle","type":"","x":688,"y":288,"width":30,"height":30,"rotation":0,"visible":true,"point":false,"properties":[]},{"id":103,"name":"fence_top_middle","type":"","x":704,"y":32,"width":30,"height":30,"rotation":0,"visible":true,"point":false,"properties":[]},{"id":105,"name":"fence_bottom_middle","type":"","x":704,"y":288,"width":30,"height":30,"rotation":0,"visible":true,"point":false,"properties":[]},{"id":107,"name":"fence_top_middle","type":"","x":720,"y":32,"width":30,"height":30,"rotation":0,"visible":true,"point":false,"properties":[]},{"id":109,"name":"fence_bottom_middle","type":"","x":720,"y":288,"width":30,"height":30,"rotation":0,"visible":true,"point":false,"properties":[]},{"id":111,"name":"fence_top_middle","type":"","x":736,"y":32,"width":30,"height":30,"rotation":0,"visible":true,"point":false,"properties":[]},{"id":113,"name":"fence_bottom_middle","type":"","x":736,"y":288,"width":30,"height":30,"rotation":0,"visible":true,"point":false,"properties":[]},{"id":115,"name":"fence_middle_left","type":"","x":576,"y":48,"width":30,"height":30,"rotation":0,"visible":true,"point":false,"properties":[]},{"id":117,"name":"fence_middle_right","type":"","x":752,"y":48,"width":30,"height":30,"rotation":0,"visible":true,"point":false,"properties":[]},{"id":119,"name":"fence_middle_left","type":"","x":576,"y":64,"width":30,"height":30,"rotation":0,"visible":true,"point":false,"properties":[]},{"id":121,"name":"fence_middle_right","type":"","x":752,"y":64,"width":30,"height":30,"rotation":0,"visible":true,"point":false,"properties":[]},{"id":123,"name":"fence_middle_left","type":"","x":576,"y":80,"width":30,"height":30,"rotation":0,"visible":true,"point":false,"properties":[]},{"id":125,"name":"fence_middle_right","type":"","x":752,"y":80,"width":30,"height":30,"rotation":0,"visible":true,"point":false,"properties":[]},{"id":127,"name":"fence_middle_left","type":"","x":576,"y":96,"width":30,"height":30,"rotation":0,"visible":true,"point":false,"properties":[]},{"id":129,"name":"fence_middle_right","type":"","x":752,"y":96,"width":30,"height":30,"rotation":0,"visible":true,"point":false,"properties":[]},{"id":131,"name":"fence_middle_left","type":"","x":576,"y":112,"width":30,"height":30,"rotation":0,"visible":true,"point":false,"properties":[]},{"id":133,"name":"fence_middle_right","type":"","x":752,"y":112,"width":30,"height":30,"rotation":0,"visible":true,"point":false,"properties":[]},{"id":135,"name":"fence_middle_left","type":"","x":576,"y":128,"width":30,"height":30,"rotation":0,"visible":true,"point":false,"properties":[]},{"id":137,"name":"fence_middle_right","type":"","x":752,"y":128,"width":30,"height":30,"rotation":0,"visible":true,"point":false,"properties":[]},{"id":139,"name":"fence_middle_left","type":"","x":576,"y":144,"width":30,"height":30,"rotation":0,"visible":true,"point":false,"properties":[]},{"id":141,"name":"fence_middle_right","type":"","x":752,"y":144,"width":30,"height":30,"rotation":0,"visible":true,"point":false,"properties":[]},{"id":143,"name":"fence_middle_left","type":"","x":576,"y":160,"width":30,"height":30,"rotation":0,"visible":true,"point":false,"properties":[]},{"id":145,"name":"fence_middle_right","type":"","x":752,"y":160,"width":30,"height":30,"rotation":0,"visible":true,"point":false,"properties":[]},{"id":147,"name":"fence_middle_left","type":"","x":576,"y":176,"width":30,"height":30,"rotation":0,"visible":true,"point":false,"properties":[]},{"id":149,"name":"fence_middle_right","type":"","x":752,"y":176,"width":30,"height":30,"rotation":0,"visible":true,"point":false,"properties":[]},{"id":151,"name":"fence_middle_left","type":"","x":576,"y":192,"width":30,"height":30,"rotation":0,"visible":true,"point":false,"properties":[]},{"id":153,"name":"fence_middle_right","type":"","x":752,"y":192,"width":30,"height":30,"rotation":0,"visible":true,"point":false,"properties":[]},{"id":155,"name":"fence_middle_left","type":"","x":576,"y":208,"width":30,"height":30,"rotation":0,"visible":true,"point":false,"properties":[]},{"id":157,"name":"fence_middle_right","type":"","x":752,"y":208,"width":30,"height":30,"rotation":0,"visible":true,"point":false,"properties":[]},{"id":159,"name":"fence_middle_left","type":"","x":576,"y":224,"width":30,"height":30,"rotation":0,"visible":true,"point":false,"properties":[]},{"id":161,"name":"fence_middle_right","type":"","x":752,"y":224,"width":30,"height":30,"rotation":0,"visible":true,"point":false,"properties":[]},{"id":163,"name":"fence_middle_left","type":"","x":576,"y":240,"width":30,"height":30,"rotation":0,"visible":true,"point":false,"properties":[]},{"id":165,"name":"fence_middle_right","type":"","x":752,"y":240,"width":30,"height":30,"rotation":0,"visible":true,"point":false,"properties":[]},{"id":167,"name":"fence_middle_left","type":"","x":576,"y":256,"width":30,"height":30,"rotation":0,"visible":true,"point":false,"properties":[]},{"id":169,"name":"fence_middle_right","type":"","x":752,"y":256,"width":30,"height":30,"rotation":0,"visible":true,"point":false,"properties":[]},{"id":171,"name":"fence_middle_left","type":"","x":576,"y":272,"width":30,"height":30,"rotation":0,"visible":true,"point":false,"properties":[]},{"id":173,"name":"fence_middle_right","type":"","x":752,"y":272,"width":30,"height":30,"rotation":0,"visible":true,"point":false,"properties":[]},{"id":175,"name":"fence_top_left","type":"","x":576,"y":32,"width":30,"height":30,"rotation":0,"visible":true,"point":false,"properties":[]},{"id":177,"name":"fence_top_right","type":"","x":752,"y":32,"width":30,"height":30,"rotation":0,"visible":true,"point":false,"properties":[]},{"id":179,"name":"fence_bottom_left","type":"","x":576,"y":288,"width":30,"height":30,"rotation":0,"visible":true,"point":false,"properties":[]},{"id":181,"name":"fence_bottom_right","type":"","x":752,"y":288,"width":30,"height":30,"rotation":0,"visible":true,"point":false,"properties":[]},{"id":201,"name":"bush_2","type":"","x":48,"y":304,"width":30,"height":30,"rotation":0,"visible":true,"point":false,"properties":[]},{"id":203,"name":"bush_1","type":"","x":160,"y":304,"width":30,"height":30,"rotation":0,"visible":true,"point":false,"properties":[]},{"id":205,"name":"bush_1","type":"","x":448,"y":304,"width":30,"height":30,"rotation":0,"visible":true,"point":false,"properties":[]},{"id":207,"name":"bush_2","type":"","x":608,"y":304,"width":30,"height":30,"rotation":0,"visible":true,"point":false,"properties":[]},{"id":209,"name":"bush_1","type":"","x":48,"y":400,"width":30,"height":30,"rotation":0,"visible":true,"point":false,"properties":[]},{"id":211,"name":"bush_2","type":"","x":256,"y":416,"width":30,"height":30,"rotation":0,"visible":true,"point":false,"properties":[]},{"id":213,"name":"bush_1","type":"","x":464,"y":416,"width":30,"height":30,"rotation":0,"visible":true,"point":false,"properties":[]},{"id":215,"name":"bush_2","type":"","x":560,"y":416,"width":30,"height":30,"rotation":0,"visible":true,"point":false,"properties":[]},{"id":217,"name":"bush_2","type":"","x":736,"y":320,"width":30,"height":30,"rotation":0,"visible":true,"point":false,"properties":[]}]},{"id":6,"name":"doors","type":"objectgroup","x":0,"y":0,"opacity":1,"visible":true,"draworder":"topdown","objects":[{"id":219,"name":"office_door","type":"","x":144,"y":288,"width":48,"height":16,"rotation":0,"visible":true,"point":false,"properties":[{"name":"targetVenue","type":"string","value":"office"}]},{"id":220,"name":"cafe_door","type":"","x":496,"y":288,"width":48,"height":16,"rotation":0,"visible":true,"point":false,"properties":[{"name":"targetVenue","type":"string","value":"cafe"}]},{"id":221,"name":"villa_door","type":"","x":120,"y":640,"width":48,"height":16,"rotation":0,"visible":true,"point":false,"properties":[{"name":"targetVenue","type":"string","value":"dorm"}]},{"id":222,"name":"library_door","type":"","x":512,"y":560,"width":48,"height":16,"rotation":0,"visible":true,"point":false,"properties":[{"name":"targetVenue","type":"string","value":"library"}]}]},{"id":7,"name":"spawns","type":"objectgroup","x":0,"y":0,"opacity":1,"visible":true,"draworder":"topdown","objects":[{"id":223,"name":"spawn_0","type":"","x":336,"y":316,"width":0,"height":0,"rotation":0,"visible":true,"point":true,"properties":[]},{"id":224,"name":"spawn_1","type":"","x":430,"y":316,"width":0,"height":0,"rotation":0,"visible":true,"point":true,"properties":[]},{"id":225,"name":"spawn_2","type":"","x":336,"y":410,"width":0,"height":0,"rotation":0,"visible":true,"point":true,"properties":[]},{"id":226,"name":"spawn_3","type":"","x":430,"y":410,"width":0,"height":0,"rotation":0,"visible":true,"point":true,"properties":[]},{"id":227,"name":"spawn_4","type":"","x":180,"y":318,"width":0,"height":0,"rotation":0,"visible":true,"point":true,"properties":[]},{"id":228,"name":"spawn_5","type":"","x":560,"y":410,"width":0,"height":0,"rotation":0,"visible":true,"point":true,"properties":[]},{"id":229,"name":"spawn_6","type":"","x":336,"y":200,"width":0,"height":0,"rotation":0,"visible":true,"point":true,"properties":[]},{"id":230,"name":"spawn_7","type":"","x":420,"y":520,"width":0,"height":0,"rotation":0,"visible":true,"point":true,"properties":[]}]},{"id":8,"name":"collision","type":"objectgroup","x":0,"y":0,"opacity":1,"visible":true,"draworder":"topdown","objects":[{"id":2,"name":"c","type":"","x":64,"y":0,"width":206,"height":318,"rotation":0,"visible":true,"point":false,"properties":[]},{"id":4,"name":"c","type":"","x":464,"y":112,"width":126,"height":206,"rotation":0,"visible":true,"point":false,"properties":[]},{"id":6,"name":"c","type":"","x":80,"y":432,"width":166,"height":238,"rotation":0,"visible":true,"point":false,"properties":[]},{"id":8,"name":"c","type":"","x":480,"y":432,"width":142,"height":158,"rotation":0,"visible":true,"point":false,"properties":[]},{"id":10,"name":"c","type":"","x":592,"y":32,"width":142,"height":174,"rotation":0,"visible":true,"point":false,"properties":[]},{"id":12,"name":"c","type":"","x":35,"y":106,"width":24,"height":16,"rotation":0,"visible":true,"point":false,"properties":[]},{"id":14,"name":"c","type":"","x":307,"y":282,"width":24,"height":16,"rotation":0,"visible":true,"point":false,"properties":[]},{"id":16,"name":"c","type":"","x":43,"y":282,"width":24,"height":16,"rotation":0,"visible":true,"point":false,"properties":[]},{"id":18,"name":"c","type":"","x":483,"y":90,"width":24,"height":16,"rotation":0,"visible":true,"point":false,"properties":[]},{"id":20,"name":"c","type":"","x":547,"y":106,"width":24,"height":16,"rotation":0,"visible":true,"point":false,"properties":[]},{"id":22,"name":"c","type":"","x":27,"y":490,"width":24,"height":16,"rotation":0,"visible":true,"point":false,"properties":[]},{"id":24,"name":"c","type":"","x":275,"y":490,"width":24,"height":16,"rotation":0,"visible":true,"point":false,"properties":[]},{"id":26,"name":"c","type":"","x":275,"y":618,"width":24,"height":16,"rotation":0,"visible":true,"point":false,"properties":[]},{"id":28,"name":"c","type":"","x":675,"y":522,"width":24,"height":16,"rotation":0,"visible":true,"point":false,"properties":[]},{"id":30,"name":"c","type":"","x":731,"y":570,"width":24,"height":16,"rotation":0,"visible":true,"point":false,"properties":[]},{"id":32,"name":"c","type":"","x":659,"y":666,"width":24,"height":16,"rotation":0,"visible":true,"point":false,"properties":[]},{"id":34,"name":"c","type":"","x":723,"y":698,"width":24,"height":16,"rotation":0,"visible":true,"point":false,"properties":[]},{"id":36,"name":"c","type":"","x":475,"y":714,"width":24,"height":16,"rotation":0,"visible":true,"point":false,"properties":[]},{"id":38,"name":"c","type":"","x":67,"y":730,"width":24,"height":16,"rotation":0,"visible":true,"point":false,"properties":[]},{"id":40,"name":"c","type":"","x":104,"y":336,"width":16,"height":14,"rotation":0,"visible":true,"point":false,"properties":[]},{"id":42,"name":"c","type":"","x":248,"y":336,"width":16,"height":14,"rotation":0,"visible":true,"point":false,"properties":[]},{"id":44,"name":"c","type":"","x":488,"y":336,"width":16,"height":14,"rotation":0,"visible":true,"point":false,"properties":[]},{"id":46,"name":"c","type":"","x":648,"y":336,"width":16,"height":14,"rotation":0,"visible":true,"point":false,"properties":[]},{"id":48,"name":"c","type":"","x":104,"y":464,"width":16,"height":14,"rotation":0,"visible":true,"point":false,"properties":[]},{"id":50,"name":"c","type":"","x":248,"y":464,"width":16,"height":14,"rotation":0,"visible":true,"point":false,"properties":[]},{"id":52,"name":"c","type":"","x":536,"y":464,"width":16,"height":14,"rotation":0,"visible":true,"point":false,"properties":[]},{"id":54,"name":"c","type":"","x":712,"y":464,"width":16,"height":14,"rotation":0,"visible":true,"point":false,"properties":[]},{"id":56,"name":"c","type":"","x":312,"y":128,"width":16,"height":14,"rotation":0,"visible":true,"point":false,"properties":[]},{"id":58,"name":"c","type":"","x":312,"y":560,"width":16,"height":14,"rotation":0,"visible":true,"point":false,"properties":[]},{"id":60,"name":"c","type":"","x":440,"y":240,"width":16,"height":14,"rotation":0,"visible":true,"point":false,"properties":[]},{"id":62,"name":"c","type":"","x":440,"y":656,"width":16,"height":14,"rotation":0,"visible":true,"point":false,"properties":[]},{"id":64,"name":"c","type":"","x":528,"y":312,"width":32,"height":20,"rotation":0,"visible":true,"point":false,"properties":[]},{"id":66,"name":"c","type":"","x":192,"y":392,"width":32,"height":20,"rotation":0,"visible":true,"point":false,"properties":[]},{"id":68,"name":"c","type":"","x":672,"y":536,"width":32,"height":20,"rotation":0,"visible":true,"point":false,"properties":[]},{"id":70,"name":"c","type":"","x":584,"y":316,"width":16,"height":16,"rotation":0,"visible":true,"point":false,"properties":[]},{"id":72,"name":"c","type":"","x":280,"y":396,"width":16,"height":16,"rotation":0,"visible":true,"point":false,"properties":[]},{"id":74,"name":"c","type":"","x":274,"y":308,"width":12,"height":10,"rotation":0,"visible":true,"point":false,"properties":[]},{"id":76,"name":"c","type":"","x":128,"y":368,"width":64,"height":24,"rotation":0,"visible":true,"point":false,"properties":[]},{"id":78,"name":"c","type":"","x":528,"y":320,"width":64,"height":28,"rotation":0,"visible":true,"point":false,"properties":[]},{"id":80,"name":"c","type":"","x":672,"y":368,"width":64,"height":24,"rotation":0,"visible":true,"point":false,"properties":[]},{"id":82,"name":"c","type":"","x":592,"y":38,"width":16,"height":10,"rotation":0,"visible":true,"point":false,"properties":[]},{"id":84,"name":"c","type":"","x":592,"y":294,"width":16,"height":10,"rotation":0,"visible":true,"point":false,"properties":[]},{"id":86,"name":"c","type":"","x":608,"y":38,"width":16,"height":10,"rotation":0,"visible":true,"point":false,"properties":[]},{"id":88,"name":"c","type":"","x":608,"y":294,"width":16,"height":10,"rotation":0,"visible":true,"point":false,"properties":[]},{"id":90,"name":"c","type":"","x":624,"y":38,"width":16,"height":10,"rotation":0,"visible":true,"point":false,"properties":[]},{"id":92,"name":"c","type":"","x":624,"y":294,"width":16,"height":10,"rotation":0,"visible":true,"point":false,"properties":[]},{"id":94,"name":"c","type":"","x":640,"y":38,"width":16,"height":10,"rotation":0,"visible":true,"point":false,"properties":[]},{"id":96,"name":"c","type":"","x":656,"y":38,"width":16,"height":10,"rotation":0,"visible":true,"point":false,"properties":[]},{"id":98,"name":"c","type":"","x":672,"y":38,"width":16,"height":10,"rotation":0,"visible":true,"point":false,"properties":[]},{"id":100,"name":"c","type":"","x":688,"y":38,"width":16,"height":10,"rotation":0,"visible":true,"point":false,"properties":[]},{"id":102,"name":"c","type":"","x":688,"y":294,"width":16,"height":10,"rotation":0,"visible":true,"point":false,"properties":[]},{"id":104,"name":"c","type":"","x":704,"y":38,"width":16,"height":10,"rotation":0,"visible":true,"point":false,"properties":[]},{"id":106,"name":"c","type":"","x":704,"y":294,"width":16,"height":10,"rotation":0,"visible":true,"point":false,"properties":[]},{"id":108,"name":"c","type":"","x":720,"y":38,"width":16,"height":10,"rotation":0,"visible":true,"point":false,"properties":[]},{"id":110,"name":"c","type":"","x":720,"y":294,"width":16,"height":10,"rotation":0,"visible":true,"point":false,"properties":[]},{"id":112,"name":"c","type":"","x":736,"y":38,"width":16,"height":10,"rotation":0,"visible":true,"point":false,"properties":[]},{"id":114,"name":"c","type":"","x":736,"y":294,"width":16,"height":10,"rotation":0,"visible":true,"point":false,"properties":[]},{"id":116,"name":"c","type":"","x":576,"y":54,"width":16,"height":10,"rotation":0,"visible":true,"point":false,"properties":[]},{"id":118,"name":"c","type":"","x":752,"y":54,"width":16,"height":10,"rotation":0,"visible":true,"point":false,"properties":[]},{"id":120,"name":"c","type":"","x":576,"y":70,"width":16,"height":10,"rotation":0,"visible":true,"point":false,"properties":[]},{"id":122,"name":"c","type":"","x":752,"y":70,"width":16,"height":10,"rotation":0,"visible":true,"point":false,"properties":[]},{"id":124,"name":"c","type":"","x":576,"y":86,"width":16,"height":10,"rotation":0,"visible":true,"point":false,"properties":[]},{"id":126,"name":"c","type":"","x":752,"y":86,"width":16,"height":10,"rotation":0,"visible":true,"point":false,"properties":[]},{"id":128,"name":"c","type":"","x":576,"y":102,"width":16,"height":10,"rotation":0,"visible":true,"point":false,"properties":[]},{"id":130,"name":"c","type":"","x":752,"y":102,"width":16,"height":10,"rotation":0,"visible":true,"point":false,"properties":[]},{"id":132,"name":"c","type":"","x":576,"y":118,"width":16,"height":10,"rotation":0,"visible":true,"point":false,"properties":[]},{"id":134,"name":"c","type":"","x":752,"y":118,"width":16,"height":10,"rotation":0,"visible":true,"point":false,"properties":[]},{"id":136,"name":"c","type":"","x":576,"y":134,"width":16,"height":10,"rotation":0,"visible":true,"point":false,"properties":[]},{"id":138,"name":"c","type":"","x":752,"y":134,"width":16,"height":10,"rotation":0,"visible":true,"point":false,"properties":[]},{"id":140,"name":"c","type":"","x":576,"y":150,"width":16,"height":10,"rotation":0,"visible":true,"point":false,"properties":[]},{"id":142,"name":"c","type":"","x":752,"y":150,"width":16,"height":10,"rotation":0,"visible":true,"point":false,"properties":[]},{"id":144,"name":"c","type":"","x":576,"y":166,"width":16,"height":10,"rotation":0,"visible":true,"point":false,"properties":[]},{"id":146,"name":"c","type":"","x":752,"y":166,"width":16,"height":10,"rotation":0,"visible":true,"point":false,"properties":[]},{"id":148,"name":"c","type":"","x":576,"y":182,"width":16,"height":10,"rotation":0,"visible":true,"point":false,"properties":[]},{"id":150,"name":"c","type":"","x":752,"y":182,"width":16,"height":10,"rotation":0,"visible":true,"point":false,"properties":[]},{"id":152,"name":"c","type":"","x":576,"y":198,"width":16,"height":10,"rotation":0,"visible":true,"point":false,"properties":[]},{"id":154,"name":"c","type":"","x":752,"y":198,"width":16,"height":10,"rotation":0,"visible":true,"point":false,"properties":[]},{"id":156,"name":"c","type":"","x":576,"y":214,"width":16,"height":10,"rotation":0,"visible":true,"point":false,"properties":[]},{"id":158,"name":"c","type":"","x":752,"y":214,"width":16,"height":10,"rotation":0,"visible":true,"point":false,"properties":[]},{"id":160,"name":"c","type":"","x":576,"y":230,"width":16,"height":10,"rotation":0,"visible":true,"point":false,"properties":[]},{"id":162,"name":"c","type":"","x":752,"y":230,"width":16,"height":10,"rotation":0,"visible":true,"point":false,"properties":[]},{"id":164,"name":"c","type":"","x":576,"y":246,"width":16,"height":10,"rotation":0,"visible":true,"point":false,"properties":[]},{"id":166,"name":"c","type":"","x":752,"y":246,"width":16,"height":10,"rotation":0,"visible":true,"point":false,"properties":[]},{"id":168,"name":"c","type":"","x":576,"y":262,"width":16,"height":10,"rotation":0,"visible":true,"point":false,"properties":[]},{"id":170,"name":"c","type":"","x":752,"y":262,"width":16,"height":10,"rotation":0,"visible":true,"point":false,"properties":[]},{"id":172,"name":"c","type":"","x":576,"y":278,"width":16,"height":10,"rotation":0,"visible":true,"point":false,"properties":[]},{"id":174,"name":"c","type":"","x":752,"y":278,"width":16,"height":10,"rotation":0,"visible":true,"point":false,"properties":[]},{"id":176,"name":"c","type":"","x":576,"y":38,"width":16,"height":10,"rotation":0,"visible":true,"point":false,"properties":[]},{"id":178,"name":"c","type":"","x":752,"y":38,"width":16,"height":10,"rotation":0,"visible":true,"point":false,"properties":[]},{"id":180,"name":"c","type":"","x":576,"y":294,"width":16,"height":10,"rotation":0,"visible":true,"point":false,"properties":[]},{"id":182,"name":"c","type":"","x":752,"y":294,"width":16,"height":10,"rotation":0,"visible":true,"point":false,"properties":[]},{"id":202,"name":"c","type":"","x":50,"y":310,"width":12,"height":10,"rotation":0,"visible":true,"point":false,"properties":[]},{"id":204,"name":"c","type":"","x":162,"y":310,"width":12,"height":10,"rotation":0,"visible":true,"point":false,"properties":[]},{"id":206,"name":"c","type":"","x":450,"y":310,"width":12,"height":10,"rotation":0,"visible":true,"point":false,"properties":[]},{"id":208,"name":"c","type":"","x":610,"y":310,"width":12,"height":10,"rotation":0,"visible":true,"point":false,"properties":[]},{"id":210,"name":"c","type":"","x":50,"y":406,"width":12,"height":10,"rotation":0,"visible":true,"point":false,"properties":[]},{"id":212,"name":"c","type":"","x":258,"y":422,"width":12,"height":10,"rotation":0,"visible":true,"point":false,"properties":[]},{"id":214,"name":"c","type":"","x":466,"y":422,"width":12,"height":10,"rotation":0,"visible":true,"point":false,"properties":[]},{"id":216,"name":"c","type":"","x":562,"y":422,"width":12,"height":10,"rotation":0,"visible":true,"point":false,"properties":[]},{"id":218,"name":"c","type":"","x":738,"y":326,"width":12,"height":10,"rotation":0,"visible":true,"point":false,"properties":[]},{"id":269,"name":"c","type":"","x":-16,"y":0,"width":16,"height":1472,"rotation":0,"visible":true,"point":false,"properties":[]},{"id":270,"name":"c","type":"","x":1472,"y":0,"width":16,"height":1472,"rotation":0,"visible":true,"point":false,"properties":[]},{"id":271,"name":"c","type":"","x":0,"y":-16,"width":1472,"height":16,"rotation":0,"visible":true,"point":false,"properties":[]},{"id":272,"name":"c","type":"","x":0,"y":1472,"width":1472,"height":16,"rotation":0,"visible":true,"point":false,"properties":[]}]},{"id":9,"name":"glows","type":"objectgroup","x":0,"y":0,"opacity":1,"visible":true,"draworder":"topdown","objects":[{"id":231,"name":"lamp","type":"lamp","x":117,"y":302,"width":0,"height":0,"rotation":0,"visible":true,"point":true,"properties":[]},{"id":232,"name":"lamp","type":"lamp","x":261,"y":302,"width":0,"height":0,"rotation":0,"visible":true,"point":true,"properties":[]},{"id":233,"name":"lamp","type":"lamp","x":501,"y":302,"width":0,"height":0,"rotation":0,"visible":true,"point":true,"properties":[]},{"id":234,"name":"lamp","type":"lamp","x":661,"y":302,"width":0,"height":0,"rotation":0,"visible":true,"point":true,"properties":[]},{"id":235,"name":"lamp","type":"lamp","x":117,"y":430,"width":0,"height":0,"rotation":0,"visible":true,"point":true,"properties":[]},{"id":236,"name":"lamp","type":"lamp","x":261,"y":430,"width":0,"height":0,"rotation":0,"visible":true,"point":true,"properties":[]},{"id":237,"name":"lamp","type":"lamp","x":549,"y":430,"width":0,"height":0,"rotation":0,"visible":true,"point":true,"properties":[]},{"id":238,"name":"lamp","type":"lamp","x":725,"y":430,"width":0,"height":0,"rotation":0,"visible":true,"point":true,"properties":[]},{"id":239,"name":"lamp","type":"lamp","x":325,"y":94,"width":0,"height":0,"rotation":0,"visible":true,"point":true,"properties":[]},{"id":240,"name":"lamp","type":"lamp","x":325,"y":526,"width":0,"height":0,"rotation":0,"visible":true,"point":true,"properties":[]},{"id":241,"name":"lamp","type":"lamp","x":453,"y":206,"width":0,"height":0,"rotation":0,"visible":true,"point":true,"properties":[]},{"id":242,"name":"lamp","type":"lamp","x":453,"y":622,"width":0,"height":0,"rotation":0,"visible":true,"point":true,"properties":[]},{"id":243,"name":"sign","type":"sign","x":189,"y":146,"width":0,"height":0,"rotation":0,"visible":true,"point":true,"properties":[]},{"id":244,"name":"window","type":"window","x":94,"y":170,"width":0,"height":0,"rotation":0,"visible":true,"point":true,"properties":[]},{"id":245,"name":"window","type":"window","x":154,"y":170,"width":0,"height":0,"rotation":0,"visible":true,"point":true,"properties":[]},{"id":246,"name":"window","type":"window","x":94,"y":202,"width":0,"height":0,"rotation":0,"visible":true,"point":true,"properties":[]},{"id":247,"name":"window","type":"window","x":154,"y":202,"width":0,"height":0,"rotation":0,"visible":true,"point":true,"properties":[]},{"id":248,"name":"window","type":"window","x":94,"y":234,"width":0,"height":0,"rotation":0,"visible":true,"point":true,"properties":[]},{"id":249,"name":"window","type":"window","x":154,"y":234,"width":0,"height":0,"rotation":0,"visible":true,"point":true,"properties":[]},{"id":250,"name":"window","type":"window","x":94,"y":266,"width":0,"height":0,"rotation":0,"visible":true,"point":true,"properties":[]},{"id":251,"name":"window","type":"window","x":154,"y":266,"width":0,"height":0,"rotation":0,"visible":true,"point":true,"properties":[]},{"id":252,"name":"window","type":"window","x":214,"y":180,"width":0,"height":0,"rotation":0,"visible":true,"point":true,"properties":[]},{"id":253,"name":"window","type":"window","x":214,"y":240,"width":0,"height":0,"rotation":0,"visible":true,"point":true,"properties":[]},{"id":254,"name":"sign","type":"sign","x":520,"y":242,"width":0,"height":0,"rotation":0,"visible":true,"point":true,"properties":[]},{"id":255,"name":"window","type":"window","x":489,"y":270,"width":0,"height":0,"rotation":0,"visible":true,"point":true,"properties":[]},{"id":256,"name":"window","type":"window","x":551,"y":270,"width":0,"height":0,"rotation":0,"visible":true,"point":true,"properties":[]},{"id":257,"name":"window","type":"window","x":116,"y":540,"width":0,"height":0,"rotation":0,"visible":true,"point":true,"properties":[]},{"id":258,"name":"window","type":"window","x":180,"y":540,"width":0,"height":0,"rotation":0,"visible":true,"point":true,"properties":[]},{"id":259,"name":"window","type":"window","x":126,"y":598,"width":0,"height":0,"rotation":0,"visible":true,"point":true,"properties":[]},{"id":260,"name":"window","type":"window","x":192,"y":598,"width":0,"height":0,"rotation":0,"visible":true,"point":true,"properties":[]},{"id":261,"name":"sign","type":"sign","x":544,"y":523,"width":0,"height":0,"rotation":0,"visible":true,"point":true,"properties":[]},{"id":262,"name":"window","type":"window","x":500,"y":560,"width":0,"height":0,"rotation":0,"visible":true,"point":true,"properties":[]},{"id":263,"name":"window","type":"window","x":544,"y":560,"width":0,"height":0,"rotation":0,"visible":true,"point":true,"properties":[]},{"id":264,"name":"window","type":"window","x":588,"y":560,"width":0,"height":0,"rotation":0,"visible":true,"point":true,"properties":[]}]},{"id":10,"name":"night","type":"objectgroup","x":0,"y":0,"opacity":1,"visible":true,"draworder":"topdown","objects":[{"id":265,"name":"animal_sleep","type":"","x":656,"y":220,"width":0,"height":0,"rotation":0,"visible":true,"point":true,"properties":[]},{"id":266,"name":"animal_sleep","type":"","x":700,"y":232,"width":0,"height":0,"rotation":0,"visible":true,"point":true,"properties":[]},{"id":267,"name":"animal_sleep","type":"","x":672,"y":258,"width":0,"height":0,"rotation":0,"visible":true,"point":true,"properties":[]},{"id":268,"name":"animal_sleep","type":"","x":726,"y":262,"width":0,"height":0,"rotation":0,"visible":true,"point":true,"properties":[]}]}]}