{"type":"map","version":"1.10","tiledversion":"1.10.2","orientation":"orthogonal","renderorder":"right-down","width":20,"height":15,"tilewidth":16,"tileheight":16,"infinite":false,"compressionlevel":-1,"nextlayerid":9,"nextobjectid":39,"properties":[],"tilesets":[{"firstgid":1,"name":"interiors_ground","image":"../tilesets/pack/interiors_ground.png","imagewidth":128,"imageheight":32,"tilewidth":16,"tileheight":16,"tilecount":13,"columns":8,"margin":0,"spacing":0}],"layers":[{"id":1,"name":"ground","type":"tilelayer","width":20,"height":15,"x":0,"y":0,"opacity":1,"visible":true,"data":[6,6,6,6,6,6,6,6,6,6,6,6,6,6,6,6,6,6,6,6,7,7,7,7,7,7,7,7,7,7,7,7,7,7,7,7,7,7,7,7,1,12,12,12,12,12,12,12,12,12,12,12,12,12,12,12,12,12,12,1,1,12,12,12,12,12,12,12,12,12,12,12,12,12,12,12,12,12,12,1,1,12,12,12,12,12,12,12,12,12,12,12,12,12,12,12,12,12,12,1,1,12,12,12,12,12,12,12,12,12,12,12,12,12,12,12,12,12,12,1,1,12,12,12,12,12,12,12,12,12,12,12,12,12,12,12,12,12,12,1,1,12,12,12,12,12,12,12,12,12,12,12,12,12,12,12,12,12,12,1,1,12,12,12,12,12,12,12,12,12,12,12,12,12,12,12,12,12,12,1,1,12,12,12,12,12,12,12,12,12,12,12,12,12,12,12,12,12,12,1,1,12,12,12,12,12,12,12,12,12,12,12,12,12,12,12,12,12,12,1,1,12,12,12,12,12,12,12,12,12,12,12,12,12,12,12,12,12,12,1,1,12,12,12,12,12,12,12,12,12,12,12,12,12,12,12,12,12,12,1,1,12,12,12,12,12,12,12,12,12,12,12,12,12,12,12,12,12,12,1,1,1,1,1,1,1,1,1,1,12,12,1,1,1,1,1,1,1,1,1]},{"id":2,"name":"furniture","type":"objectgroup","x":0,"y":0,"opacity":1,"visible":true,"draworder":"topdown","objects":[{"id":1,"name":"bed_green","type":"","x":32,"y":25.6,"width":46,"height":62,"rotation":0,"visible":true,"point":false,"properties":[]},{"id":3,"name":"bed_blue","type":"","x":96,"y":25.6,"width":46,"height":62,"rotation":0,"visible":true,"point":false,"properties":[]},{"id":5,"name":"bed_teal","type":"","x":192,"y":25.6,"width":46,"height":62,"rotation":0,"visible":true,"point":false,"properties":[]},{"id":7,"name":"bed_green","type":"","x":256,"y":25.6,"width":46,"height":62,"rotation":0,"visible":true,"point":false,"properties":[]},{"id":9,"name":"nightstand","type":"","x":68.8,"y":38.4,"width":30,"height":30,"rotation":0,"visible":true,"point":false,"properties":[]},{"id":11,"name":"nightstand","type":"","x":228.8,"y":38.4,"width":30,"height":30,"rotation":0,"visible":true,"point":false,"properties":[]},{"id":13,"name":"rug_pink","type":"","x":128,"y":134.4,"width":46,"height":46,"rotation":0,"visible":true,"point":false,"properties":[]},{"id":14,"name":"armchair_grey_r","type":"","x":96,"y":116,"width":30,"height":46,"rotation":0,"visible":true,"point":false,"properties":[]},{"id":16,"name":"armchair_grey_l","type":"","x":195.2,"y":116,"width":30,"height":46,"rotation":0,"visible":true,"point":false,"properties":[]},{"id":18,"name":"plant_palm","type":"","x":19.2,"y":128,"width":30,"height":62,"rotation":0,"visible":true,"point":false,"properties":[]},{"id":20,"name":"lamp_red","type":"","x":288,"y":121.6,"width":22,"height":46,"rotation":0,"visible":true,"point":false,"properties":[]},{"id":22,"name":"plant_pot","type":"","x":288,"y":192,"width":30,"height":30,"rotation":0,"visible":true,"point":false,"properties":[]},{"id":31,"name":"doormat","type":"","x":145,"y":176,"width":30,"height":46,"rotation":0,"visible":true,"point":false,"properties":[{"name":"doormat","type":"bool","value":true}]}]},{"id":3,"name":"seats","type":"objectgroup","x":0,"y":0,"opacity":1,"visible":true,"draworder":"topdown","objects":[{"id":24,"name":"seat_0","type":"","x":44.8,"y":54.4,"width":0,"height":0,"rotation":0,"visible":true,"point":true,"properties":[{"name":"side","type":"string","value":"right"},{"name":"kind","type":"string","value":"bed"}]},{"id":25,"name":"seat_1","type":"","x":108.8,"y":54.4,"width":0,"height":0,"rotation":0,"visible":true,"point":true,"properties":[{"name":"side","type":"string","value":"right"},{"name":"kind","type":"string","value":"bed"}]},{"id":26,"name":"seat_2","type":"","x":204.8,"y":54.4,"width":0,"height":0,"rotation":0,"visible":true,"point":true,"properties":[{"name":"side","type":"string","value":"left"},{"name":"kind","type":"string","value":"bed"}]},{"id":27,"name":"seat_3","type":"","x":268.8,"y":54.4,"width":0,"height":0,"rotation":0,"visible":true,"point":true,"properties":[{"name":"side","type":"string","value":"left"},{"name":"kind","type":"string","value":"bed"}]},{"id":28,"name":"seat_4","type":"","x":110.4,"y":158.4,"width":0,"height":0,"rotation":0,"visible":true,"point":true,"properties":[{"name":"side","type":"string","value":"right"},{"name":"kind","type":"string","value":"chair"}]},{"id":29,"name":"seat_5","type":"","x":208,"y":158.4,"width":0,"height":0,"rotation":0,"visible":true,"point":true,"properties":[{"name":"side","type":"string","value":"left"},{"name":"kind","type":"string","value":"chair"}]}]},{"id":4,"name":"animated","type":"objectgroup","x":0,"y":0,"opacity":1,"visible":true,"draworder":"topdown","objects":[{"id":30,"name":"tv_news","type":"","x":144,"y":6.4,"width":0,"height":0,"rotation":0,"visible":true,"point":true,"properties":[]}]},{"id":5,"name":"doors","type":"objectgroup","x":0,"y":0,"opacity":1,"visible":true,"draworder":"topdown","objects":[{"id":32,"name":"exit","type":"","x":136,"y":172,"width":48,"height":54,"rotation":0,"visible":true,"point":false,"properties":[{"name":"targetVenue","type":"string","value":"district"}]}]},{"id":6,"name":"spawns","type":"objectgroup","x":0,"y":0,"opacity":1,"visible":true,"draworder":"topdown","objects":[{"id":38,"name":"spawn_0","type":"","x":156.8,"y":204.8,"width":0,"height":0,"rotation":0,"visible":true,"point":true,"properties":[]}]},{"id":7,"name":"collision","type":"objectgroup","x":0,"y":0,"opacity":1,"visible":true,"draworder":"topdown","objects":[{"id":2,"name":"c","type":"","x":33,"y":69.6,"width":44,"height":18,"rotation":0,"visible":true,"point":false,"properties":[]},{"id":4,"name":"c","type":"","x":97,"y":69.6,"width":44,"height":18,"rotation":0,"visible":true,"point":false,"properties":[]},{"id":6,"name":"c","type":"","x":193,"y":69.6,"width":44,"height":18,"rotation":0,"visible":true,"point":false,"properties":[]},{"id":8,"name":"c","type":"","x":257,"y":69.6,"width":44,"height":18,"rotation":0,"visible":true,"point":false,"properties":[]},{"id":10,"name":"c","type":"","x":69.8,"y":50.4,"width":28,"height":18,"rotation":0,"visible":true,"point":false,"properties":[]},{"id":12,"name":"c","type":"","x":229.8,"y":50.4,"width":28,"height":18,"rotation":0,"visible":true,"point":false,"properties":[]},{"id":15,"name":"c","type":"","x":97,"y":144,"width":28,"height":18,"rotation":0,"visible":true,"point":false,"properties":[]},{"id":17,"name":"c","type":"","x":196.2,"y":144,"width":28,"height":18,"rotation":0,"visible":true,"point":false,"properties":[]},{"id":19,"name":"c","type":"","x":20.2,"y":172,"width":28,"height":18,"rotation":0,"visible":true,"point":false,"properties":[]},{"id":21,"name":"c","type":"","x":289,"y":149.6,"width":20,"height":18,"rotation":0,"visible":true,"point":false,"properties":[]},{"id":23,"name":"c","type":"","x":289,"y":204,"width":28,"height":18,"rotation":0,"visible":true,"point":false,"properties":[]},{"id":33,"name":"c","type":"","x":0,"y":0,"width":320,"height":32,"rotation":0,"visible":true,"point":false,"properties":[]},{"id":34,"name":"c","type":"","x":0,"y":224,"width":144,"height":16,"rotation":0,"visible":true,"point":false,"properties":[]},{"id":35,"name":"c","type":"","x":176,"y":224,"width":144,"height":16,"rotation":0,"visible":true,"point":false,"properties":[]},{"id":36,"name":"c","type":"","x":0,"y":0,"width":16,"height":240,"rotation":0,"visible":true,"point":false,"properties":[]},{"id":37,"name":"c","type":"","x":304,"y":0,"width":16,"height":240,"rotation":0,"visible":true,"point":false,"properties":[]}]}]}