{"type":"map","version":"1.10","tiledversion":"1.10.2","orientation":"orthogonal","renderorder":"right-down","width":20,"height":15,"tilewidth":16,"tileheight":16,"infinite":false,"compressionlevel":-1,"nextlayerid":9,"nextobjectid":45,"properties":[],"tilesets":[{"firstgid":1,"name":"interiors_ground","image":"../tilesets/limezu/interiors_ground.png","imagewidth":128,"imageheight":32,"tilewidth":16,"tileheight":16,"tilecount":13,"columns":8,"margin":0,"spacing":0}],"layers":[{"id":1,"name":"ground","type":"tilelayer","width":20,"height":15,"x":0,"y":0,"opacity":1,"visible":true,"data":[8,8,8,8,8,8,8,8,8,8,8,8,8,8,8,8,8,8,8,8,9,9,9,9,9,9,9,9,9,9,9,9,9,9,9,9,9,9,9,9,1,13,13,13,13,13,13,13,13,13,13,13,13,13,13,13,13,13,13,1,1,13,13,13,13,13,13,13,13,13,13,13,13,13,13,13,13,13,13,1,1,13,13,13,13,13,13,13,13,13,13,13,13,13,13,13,13,13,13,1,1,13,13,13,13,13,13,13,13,13,13,13,13,13,13,13,13,13,13,1,1,13,13,13,13,13,13,13,13,13,13,13,13,13,13,13,13,13,13,1,1,13,13,13,13,13,13,13,13,13,13,13,13,13,13,13,13,13,13,1,1,13,13,13,13,13,13,13,13,13,13,13,13,13,13,13,13,13,13,1,1,13,13,13,13,13,13,13,13,13,13,13,13,13,13,13,13,13,13,1,1,13,13,13,13,13,13,13,13,13,13,13,13,13,13,13,13,13,13,1,1,13,13,13,13,13,13,13,13,13,13,13,13,13,13,13,13,13,13,1,1,13,13,13,13,13,13,13,13,13,13,13,13,13,13,13,13,13,13,1,1,13,13,13,13,13,13,13,13,13,13,13,13,13,13,13,13,13,13,1,1,1,1,1,1,1,1,1,1,13,13,1,1,1,1,1,1,1,1,1]},{"id":2,"name":"furniture","type":"objectgroup","x":0,"y":0,"opacity":1,"visible":true,"draworder":"topdown","objects":[{"id":1,"name":"bookshelf_a","type":"","x":16,"y":11.2,"width":48,"height":49,"rotation":0,"visible":true,"point":false,"properties":[]},{"id":3,"name":"bookshelf_b","type":"","x":64,"y":11.2,"width":48,"height":49,"rotation":0,"visible":true,"point":false,"properties":[]},{"id":5,"name":"bookshelf_a","type":"","x":112,"y":11.2,"width":48,"height":49,"rotation":0,"visible":true,"point":false,"properties":[]},{"id":7,"name":"bookshelf_narrow","type":"","x":160,"y":6.4,"width":11,"height":60,"rotation":0,"visible":true,"point":false,"properties":[]},{"id":9,"name":"bookshelf_b","type":"","x":184,"y":11.2,"width":48,"height":49,"rotation":0,"visible":true,"point":false,"properties":[]},{"id":11,"name":"bookshelf_a","type":"","x":232,"y":11.2,"width":48,"height":49,"rotation":0,"visible":true,"point":false,"properties":[]},{"id":13,"name":"chalkboard","type":"","x":281.6,"y":6.4,"width":28,"height":27,"rotation":0,"visible":true,"point":false,"properties":[]},{"id":14,"name":"lectern","type":"","x":150.4,"y":64,"width":17,"height":20,"rotation":0,"visible":true,"point":false,"properties":[]},{"id":16,"name":"globe","type":"","x":22.4,"y":80,"width":13,"height":21,"rotation":0,"visible":true,"point":false,"properties":[]},{"id":18,"name":"lamp_red","type":"","x":288,"y":73.6,"width":17,"height":33,"rotation":0,"visible":true,"point":false,"properties":[]},{"id":20,"name":"table_plain","type":"","x":64,"y":120,"width":32,"height":39,"rotation":0,"visible":true,"point":false,"properties":[]},{"id":22,"name":"chair_yellow_r","type":"","x":38.4,"y":124.8,"width":14,"height":28,"rotation":0,"visible":true,"point":false,"properties":[]},{"id":23,"name":"chair_yellow_l","type":"","x":115.2,"y":124.8,"width":13,"height":28,"rotation":0,"visible":true,"point":false,"properties":[]},{"id":24,"name":"table_plain","type":"","x":208,"y":120,"width":32,"height":39,"rotation":0,"visible":true,"point":false,"properties":[]},{"id":26,"name":"chair_blue_r","type":"","x":182.4,"y":124.8,"width":14,"height":28,"rotation":0,"visible":true,"point":false,"properties":[]},{"id":27,"name":"chair_blue_l","type":"","x":259.2,"y":124.8,"width":13,"height":28,"rotation":0,"visible":true,"point":false,"properties":[]},{"id":28,"name":"plant_palm","type":"","x":19.2,"y":168,"width":22,"height":31,"rotation":0,"visible":true,"point":false,"properties":[]},{"id":30,"name":"plant_pot","type":"","x":288,"y":192,"width":32,"height":48,"rotation":0,"visible":true,"point":false,"properties":[]},{"id":37,"name":"doormat","type":"","x":145,"y":184,"width":30,"height":38,"rotation":0,"visible":true,"point":false,"properties":[{"name":"doormat","type":"bool","value":true}]}]},{"id":3,"name":"seats","type":"objectgroup","x":0,"y":0,"opacity":1,"visible":true,"draworder":"topdown","objects":[{"id":32,"name":"seat_0","type":"","x":51.2,"y":153.6,"width":0,"height":0,"rotation":0,"visible":true,"point":true,"properties":[{"name":"side","type":"string","value":"right"},{"name":"kind","type":"string","value":"chair"}]},{"id":33,"name":"seat_1","type":"","x":128,"y":153.6,"width":0,"height":0,"rotation":0,"visible":true,"point":true,"properties":[{"name":"side","type":"string","value":"left"},{"name":"kind","type":"string","value":"chair"}]},{"id":34,"name":"seat_2","type":"","x":195.2,"y":153.6,"width":0,"height":0,"rotation":0,"visible":true,"point":true,"properties":[{"name":"side","type":"string","value":"right"},{"name":"kind","type":"string","value":"chair"}]},{"id":35,"name":"seat_3","type":"","x":272,"y":153.6,"width":0,"height":0,"rotation":0,"visible":true,"point":true,"properties":[{"name":"side","type":"string","value":"left"},{"name":"kind","type":"string","value":"chair"}]}]},{"id":4,"name":"animated","type":"objectgroup","x":0,"y":0,"opacity":1,"visible":true,"draworder":"topdown","objects":[{"id":36,"name":"cuckoo_clock","type":"","x":208,"y":4.8,"width":0,"height":0,"rotation":0,"visible":true,"point":true,"properties":[]}]},{"id":5,"name":"doors","type":"objectgroup","x":0,"y":0,"opacity":1,"visible":true,"draworder":"topdown","objects":[{"id":38,"name":"exit","type":"","x":136,"y":180,"width":48,"height":46,"rotation":0,"visible":true,"point":false,"properties":[{"name":"targetScene","type":"string","value":"DistrictScene"}]}]},{"id":6,"name":"spawns","type":"objectgroup","x":0,"y":0,"opacity":1,"visible":true,"draworder":"topdown","objects":[{"id":44,"name":"spawn_0","type":"","x":156.8,"y":204.8,"width":0,"height":0,"rotation":0,"visible":true,"point":true,"properties":[]}]},{"id":7,"name":"collision","type":"objectgroup","x":0,"y":0,"opacity":1,"visible":true,"draworder":"topdown","objects":[{"id":2,"name":"c","type":"","x":17,"y":42.2,"width":46,"height":18,"rotation":0,"visible":true,"point":false,"properties":[]},{"id":4,"name":"c","type":"","x":65,"y":42.2,"width":46,"height":18,"rotation":0,"visible":true,"point":false,"properties":[]},{"id":6,"name":"c","type":"","x":113,"y":42.2,"width":46,"height":18,"rotation":0,"visible":true,"point":false,"properties":[]},{"id":8,"name":"c","type":"","x":161,"y":48.4,"width":9,"height":18,"rotation":0,"visible":true,"point":false,"properties":[]},{"id":10,"name":"c","type":"","x":185,"y":42.2,"width":46,"height":18,"rotation":0,"visible":true,"point":false,"properties":[]},{"id":12,"name":"c","type":"","x":233,"y":42.2,"width":46,"height":18,"rotation":0,"visible":true,"point":false,"properties":[]},{"id":15,"name":"c","type":"","x":151.4,"y":66,"width":15,"height":18,"rotation":0,"visible":true,"point":false,"properties":[]},{"id":17,"name":"c","type":"","x":23.4,"y":83,"width":11,"height":18,"rotation":0,"visible":true,"point":false,"properties":[]},{"id":19,"name":"c","type":"","x":289,"y":88.6,"width":15,"height":18,"rotation":0,"visible":true,"point":false,"properties":[]},{"id":21,"name":"c","type":"","x":65,"y":141,"width":30,"height":18,"rotation":0,"visible":true,"point":false,"properties":[]},{"id":25,"name":"c","type":"","x":209,"y":141,"width":30,"height":18,"rotation":0,"visible":true,"point":false,"properties":[]},{"id":29,"name":"c","type":"","x":20.2,"y":181,"width":20,"height":18,"rotation":0,"visible":true,"point":false,"properties":[]},{"id":31,"name":"c","type":"","x":289,"y":222,"width":30,"height":18,"rotation":0,"visible":true,"point":false,"properties":[]},{"id":39,"name":"c","type":"","x":0,"y":0,"width":320,"height":32,"rotation":0,"visible":true,"point":false,"properties":[]},{"id":40,"name":"c","type":"","x":0,"y":224,"width":144,"height":16,"rotation":0,"visible":true,"point":false,"properties":[]},{"id":41,"name":"c","type":"","x":176,"y":224,"width":144,"height":16,"rotation":0,"visible":true,"point":false,"properties":[]},{"id":42,"name":"c","type":"","x":0,"y":0,"width":16,"height":240,"rotation":0,"visible":true,"point":false,"properties":[]},{"id":43,"name":"c","type":"","x":304,"y":0,"width":16,"height":240,"rotation":0,"visible":true,"point":false,"properties":[]}]}]}