{"type":"map","version":"1.10","tiledversion":"1.10.2","orientation":"orthogonal","renderorder":"right-down","width":20,"height":15,"tilewidth":16,"tileheight":16,"infinite":false,"compressionlevel":-1,"nextlayerid":9,"nextobjectid":40,"properties":[],"tilesets":[{"firstgid":1,"name":"interiors_ground","image":"../tilesets/pack/interiors_ground.png","imagewidth":128,"imageheight":32,"tilewidth":16,"tileheight":16,"tilecount":13,"columns":8,"margin":0,"spacing":0}],"layers":[{"id":1,"name":"ground","type":"tilelayer","width":20,"height":15,"x":0,"y":0,"opacity":1,"visible":true,"data":[2,2,2,2,2,2,2,2,2,2,2,2,2,2,2,2,2,2,2,2,3,3,3,3,3,3,3,3,3,3,3,3,3,3,3,3,3,3,3,3,1,10,10,10,10,10,10,10,10,10,10,10,10,10,10,10,10,10,10,1,1,10,10,10,10,10,10,10,10,10,10,10,10,10,10,10,10,10,10,1,1,10,10,10,10,10,10,10,10,10,10,10,10,10,10,10,10,10,10,1,1,10,10,10,10,10,10,10,10,10,10,10,10,10,10,10,10,10,10,1,1,10,10,10,10,10,10,10,10,10,10,10,10,10,10,10,10,10,10,1,1,10,10,10,10,10,10,10,10,10,10,10,10,10,10,10,10,10,10,1,1,10,10,10,10,10,10,10,10,10,10,10,10,10,10,10,10,10,10,1,1,10,10,10,10,10,10,10,10,10,10,10,10,10,10,10,10,10,10,1,1,10,10,10,10,10,10,10,10,10,10,10,10,10,10,10,10,10,10,1,1,10,10,10,10,10,10,10,10,10,10,10,10,10,10,10,10,10,10,1,1,10,10,10,10,10,10,10,10,10,10,10,10,10,10,10,10,10,10,1,1,10,10,10,10,10,10,10,10,10,10,10,10,10,10,10,10,10,10,1,1,1,1,1,1,1,1,1,1,10,10,1,1,1,1,1,1,1,1,1]},{"id":2,"name":"furniture","type":"objectgroup","x":0,"y":0,"opacity":1,"visible":true,"draworder":"topdown","objects":[{"id":1,"name":"workstation_single","type":"","x":32,"y":19.2,"width":46,"height":46,"rotation":0,"visible":true,"point":false,"properties":[]},{"id":3,"name":"workstation_double","type":"","x":104,"y":19.2,"width":78,"height":46,"rotation":0,"visible":true,"point":false,"properties":[]},{"id":5,"name":"workstation_single","type":"","x":192,"y":19.2,"width":46,"height":46,"rotation":0,"visible":true,"point":false,"properties":[]},{"id":7,"name":"whiteboard","type":"","x":248,"y":3.2,"width":46,"height":46,"rotation":0,"visible":true,"point":false,"properties":[]},{"id":8,"name":"printer","type":"","x":280,"y":25.6,"width":30,"height":46,"rotation":0,"visible":true,"point":false,"properties":[]},{"id":10,"name":"coffee_machine","type":"","x":19.2,"y":88,"width":30,"height":46,"rotation":0,"visible":true,"point":false,"properties":[]},{"id":12,"name":"plant_pot","type":"","x":288,"y":80,"width":30,"height":30,"rotation":0,"visible":true,"point":false,"properties":[]},{"id":14,"name":"plant_small","type":"","x":19.2,"y":192,"width":30,"height":30,"rotation":0,"visible":true,"point":false,"properties":[]},{"id":16,"name":"table_plain","type":"","x":112,"y":104,"width":46,"height":46,"rotation":0,"visible":true,"point":false,"properties":[]},{"id":18,"name":"table_plain","type":"","x":160,"y":104,"width":46,"height":46,"rotation":0,"visible":true,"point":false,"properties":[]},{"id":20,"name":"chair_blue_r","type":"","x":86.4,"y":108.8,"width":22,"height":38,"rotation":0,"visible":true,"point":false,"properties":[]},{"id":21,"name":"chair_blue_r","type":"","x":86.4,"y":132.8,"width":22,"height":38,"rotation":0,"visible":true,"point":false,"properties":[]},{"id":22,"name":"chair_blue_l","type":"","x":211.2,"y":108.8,"width":22,"height":38,"rotation":0,"visible":true,"point":false,"properties":[]},{"id":23,"name":"chair_blue_l","type":"","x":211.2,"y":132.8,"width":22,"height":38,"rotation":0,"visible":true,"point":false,"properties":[]},{"id":24,"name":"plant_palm","type":"","x":280,"y":168,"width":30,"height":62,"rotation":0,"visible":true,"point":false,"properties":[]},{"id":32,"name":"doormat","type":"","x":145,"y":176,"width":30,"height":46,"rotation":0,"visible":true,"point":false,"properties":[{"name":"doormat","type":"bool","value":true}]}]},{"id":3,"name":"seats","type":"objectgroup","x":0,"y":0,"opacity":1,"visible":true,"draworder":"topdown","objects":[{"id":26,"name":"seat_0","type":"","x":99.2,"y":137.6,"width":0,"height":0,"rotation":0,"visible":true,"point":true,"properties":[{"name":"side","type":"string","value":"right"},{"name":"kind","type":"string","value":"chair"}]},{"id":27,"name":"seat_1","type":"","x":99.2,"y":161.6,"width":0,"height":0,"rotation":0,"visible":true,"point":true,"properties":[{"name":"side","type":"string","value":"right"},{"name":"kind","type":"string","value":"chair"}]},{"id":28,"name":"seat_2","type":"","x":224,"y":137.6,"width":0,"height":0,"rotation":0,"visible":true,"point":true,"properties":[{"name":"side","type":"string","value":"left"},{"name":"kind","type":"string","value":"chair"}]},{"id":29,"name":"seat_3","type":"","x":224,"y":161.6,"width":0,"height":0,"rotation":0,"visible":true,"point":true,"properties":[{"name":"side","type":"string","value":"left"},{"name":"kind","type":"string","value":"chair"}]}]},{"id":4,"name":"animated","type":"objectgroup","x":0,"y":0,"opacity":1,"visible":true,"draworder":"topdown","objects":[{"id":30,"name":"office_screen","type":"","x":72,"y":4.8,"width":0,"height":0,"rotation":0,"visible":true,"point":true,"properties":[]},{"id":31,"name":"coffee_steam","type":"","x":24,"y":73.6,"width":0,"height":0,"rotation":0,"visible":true,"point":true,"properties":[]}]},{"id":5,"name":"doors","type":"objectgroup","x":0,"y":0,"opacity":1,"visible":true,"draworder":"topdown","objects":[{"id":33,"name":"exit","type":"","x":136,"y":172,"width":48,"height":54,"rotation":0,"visible":true,"point":false,"properties":[{"name":"targetVenue","type":"string","value":"district"}]}]},{"id":6,"name":"spawns","type":"objectgroup","x":0,"y":0,"opacity":1,"visible":true,"draworder":"topdown","objects":[{"id":39,"name":"spawn_0","type":"","x":156.8,"y":200,"width":0,"height":0,"rotation":0,"visible":true,"point":true,"properties":[]}]},{"id":7,"name":"collision","type":"objectgroup","x":0,"y":0,"opacity":1,"visible":true,"draworder":"topdown","objects":[{"id":2,"name":"c","type":"","x":33,"y":47.2,"width":44,"height":18,"rotation":0,"visible":true,"point":false,"properties":[]},{"id":4,"name":"c","type":"","x":105,"y":47.2,"width":76,"height":18,"rotation":0,"visible":true,"point":false,"properties":[]},{"id":6,"name":"c","type":"","x":193,"y":47.2,"width":44,"height":18,"rotation":0,"visible":true,"point":false,"properties":[]},{"id":9,"name":"c","type":"","x":281,"y":53.6,"width":28,"height":18,"rotation":0,"visible":true,"point":false,"properties":[]},{"id":11,"name":"c","type":"","x":20.2,"y":116,"width":28,"height":18,"rotation":0,"visible":true,"point":false,"properties":[]},{"id":13,"name":"c","type":"","x":289,"y":92,"width":28,"height":18,"rotation":0,"visible":true,"point":false,"properties":[]},{"id":15,"name":"c","type":"","x":20.2,"y":204,"width":28,"height":18,"rotation":0,"visible":true,"point":false,"properties":[]},{"id":17,"name":"c","type":"","x":113,"y":132,"width":44,"height":18,"rotation":0,"visible":true,"point":false,"properties":[]},{"id":19,"name":"c","type":"","x":161,"y":132,"width":44,"height":18,"rotation":0,"visible":true,"point":false,"properties":[]},{"id":25,"name":"c","type":"","x":281,"y":212,"width":28,"height":18,"rotation":0,"visible":true,"point":false,"properties":[]},{"id":34,"name":"c","type":"","x":0,"y":0,"width":320,"height":32,"rotation":0,"visible":true,"point":false,"properties":[]},{"id":35,"name":"c","type":"","x":0,"y":224,"width":144,"height":16,"rotation":0,"visible":true,"point":false,"properties":[]},{"id":36,"name":"c","type":"","x":176,"y":224,"width":144,"height":16,"rotation":0,"visible":true,"point":false,"properties":[]},{"id":37,"name":"c","type":"","x":0,"y":0,"width":16,"height":240,"rotation":0,"visible":true,"point":false,"properties":[]},{"id":38,"name":"c","type":"","x":304,"y":0,"width":16,"height":240,"rotation":0,"visible":true,"point":false,"properties":[]}]}]}